%
O80001 (C2-CC)
(Using high feed G1 F500. instead of G0.)
(T1 D=0.5 CR=0. - ZMIN=-1.29 - flat end mill)
(T2 D=0.25 CR=0. - ZMIN=-1.29 - flat end mill)
(T3 D=0.25 CR=0.125 - ZMIN=-0.818 - ball end mill)
(T4 D=0.125 CR=0.0625 - ZMIN=-0.864 - ball end mill)
(T5 D=0.201 CR=0. TAPER=118deg - ZMIN=-1.3004 - drill)
N10 G90 G94 G17
N15 G20
N20 G53 G0 Z0.

(Adaptive2)
N25 T1 M6
N30 S1140 M3
N35 G54
N40 M8
N45 G0 X-0.0491 Y-3.151
N50 G43 Z0.6 H1
N55 T2
N60 G0 Z0.2
N65 Z-0.2939
N70 G1 Z-0.3439 F22.8
N75 X-0.049 Y-3.1507 Z-0.3495
N80 X-0.0487 Y-3.1498 Z-0.355
N85 X-0.0484 Y-3.1483 Z-0.3604
N90 X-0.0478 Y-3.1462 Z-0.3656
N95 X-0.0472 Y-3.1436 Z-0.3705
N100 X-0.0463 Y-3.1404 Z-0.375
N105 X-0.0454 Y-3.1368 Z-0.3792
N110 X-0.0444 Y-3.1328 Z-0.383
N115 X-0.0432 Y-3.1283 Z-0.3862
N120 X-0.042 Y-3.1236 Z-0.3889
N125 X-0.0407 Y-3.1186 Z-0.3911
N130 X-0.0394 Y-3.1134 Z-0.3926
N135 X-0.038 Y-3.108 Z-0.3936
N140 X-0.0366 Y-3.1026 Z-0.3939
N145 G3 X0.0025 Y-2.8304 I-1.2366 J0.3167
N150 G1 Y-2.8244
N155 X-0.0082 Y-2.7722
N160 X-0.0166 Y-2.7195
N165 X-0.0232 Y-2.6667
N170 X-0.0285 Y-2.6136
N175 X-0.0326 Y-2.5605
N180 X-0.0358 Y-2.5073
N185 X-0.0383 Y-2.4541
N190 X-0.0403 Y-2.4008
N195 X-0.0419 Y-2.3475
N200 X-0.0431 Y-2.2943
N205 X-0.0441 Y-2.241
N210 X-0.0448 Y-2.1877
N215 X-0.0454 Y-2.1344
N220 X-0.0458 Y-2.0811
N225 X-0.0462 Y-2.0278
N230 X-0.0465 Y-1.9745
N235 X-0.0467 Y-1.9213
N240 X-0.047 Y-1.8147
N245 X-0.0472 Y-1.7081
N250 X-0.0474 Y-1.5482
N255 X-0.0475 Y-1.2285
N260 Y-0.8554
N265 Y-0.2159
N270 X-0.0294 Y-0.1658
N275 X0.0032 Y-0.1236
N280 X0.0437 Y-0.089
N285 X0.089 Y-0.0609
N290 X0.1373 Y-0.0384
N295 X0.1874 Y-0.0203
N300 X0.2387 Y-0.006
N305 X0.2908 Y0.0054
N310 X0.3433 Y0.0144
N315 X0.3961 Y0.0215
N320 X0.4491 Y0.0271
N325 X0.5022 Y0.0315
N330 X0.5554 Y0.035
N335 X0.6086 Y0.0377
N340 X0.6619 Y0.0398
N345 X0.7151 Y0.0415
N350 X0.7643 Y0.0427
N355 X0.7823 Y0.0445
N360 X0.7998 Y0.0491
N365 X0.8164 Y0.0564
N370 X0.8317 Y0.0662
N375 X0.8385 Y0.0713
N380 X0.8434 Y0.0747
N385 X0.8535 Y0.0812
N390 X0.8685 Y0.0906
N395 X0.9734 Y0.1557
N400 X0.9884 Y0.1647
N405 X1.0033 Y0.1719
N410 X1.0197 Y0.1797
N415 X1.0333 Y0.186
N420 X1.0483 Y0.1926
N425 X1.0532 Y0.1947
N430 X1.0633 Y0.1987
N435 X1.0993 Y0.2097
N440 X1.1232 Y0.2158
N445 X1.1382 Y0.2195
N450 X1.1695 Y0.2247
N455 X1.1831 Y0.2261
N460 X1.2131 Y0.2286
N465 X1.2281 Y0.2295
N470 X1.2431 Y0.2299
N475 X1.2581 Y0.23
N480 X2.3219
N485 X2.3369 Y0.2299
N490 X2.3519 Y0.2295
N495 X2.3669 Y0.2286
N500 X2.3969 Y0.2261
N505 X2.4105 Y0.2247
N510 X2.4418 Y0.2195
N515 X2.4568 Y0.2158
N520 X2.4807 Y0.2097
N525 X2.5167 Y0.1987
N530 X2.5268 Y0.1947
N535 X2.5317 Y0.1926
N540 X2.5467 Y0.186
N545 X2.5617 Y0.179
N550 X2.5767 Y0.1719
N555 X2.5917 Y0.1646
N560 X2.6384 Y0.14
N565 X2.6779 Y0.123
N570 X2.7284 Y0.106
N575 X2.7801 Y0.093
N580 X2.8324 Y0.0829
N585 X2.8852 Y0.0751
N590 X2.9381 Y0.069
N595 X2.9912 Y0.0643
N600 X3.0443 Y0.0606
N605 X3.0976 Y0.0577
N610 X3.1508 Y0.0555
N615 X3.2041 Y0.0538
N620 X3.2573 Y0.0524
N625 X3.3106 Y0.0513
N630 X3.3639 Y0.0505
N635 X3.4141 Y0.0325
N640 X3.4563 Y-0.0001
N645 X3.4909 Y-0.0406
N650 X3.519 Y-0.0859
N655 X3.5416 Y-0.1341
N660 X3.5596 Y-0.1843
N665 X3.574 Y-0.2356
N670 X3.5854 Y-0.2877
N675 X3.5944 Y-0.3402
N680 X3.6015 Y-0.393
N685 X3.6071 Y-0.446
N690 X3.6115 Y-0.4991
N695 X3.615 Y-0.5523
N700 X3.6177 Y-0.6055
N705 X3.6198 Y-0.6587
N710 X3.6215 Y-0.712
N715 X3.6228 Y-0.7653
N720 X3.6238 Y-0.8186
N725 X3.6246 Y-0.8719
N730 X3.6252 Y-0.9251
N735 X3.6257 Y-0.9784
N740 X3.6261 Y-1.0317
N745 X3.6264 Y-1.085
N750 X3.6267 Y-1.1383
N755 X3.6268 Y-1.1916
N760 X3.6271 Y-1.2982
N765 X3.6273 Y-1.4581
N770 X3.6274 Y-1.6712
N775 X3.6275 Y-2.2041
N780 Y-2.364
N785 X3.6094 Y-2.4141
N790 X3.5769 Y-2.4563
N795 X3.5364 Y-2.491
N800 X3.4911 Y-2.519
N805 X3.4428 Y-2.5416
N810 X3.3927 Y-2.5597
N815 X3.3413 Y-2.574
N820 X3.2893 Y-2.5854
N825 X3.2367 Y-2.5944
N830 X3.1839 Y-2.6015
N835 X3.1309 Y-2.6071
N840 X3.0778 Y-2.6115
N845 X3.0246 Y-2.615
N850 X2.9714 Y-2.6177
N855 X2.9182 Y-2.6198
N860 X2.8649 Y-2.6215
N865 X2.8157 Y-2.6227
N870 X2.7977 Y-2.6245
N875 X2.7802 Y-2.6291
N880 X2.7636 Y-2.6364
N885 X2.7483 Y-2.6462
N890 X2.7415 Y-2.6513
N895 X2.7366 Y-2.6547
N900 X2.7265 Y-2.6612
N905 X2.7115 Y-2.6706
N910 X2.6066 Y-2.7357
N915 X2.5916 Y-2.7447
N920 X2.5767 Y-2.7519
N925 X2.5603 Y-2.7597
N930 X2.5467 Y-2.766
N935 X2.5317 Y-2.7726
N940 X2.5268 Y-2.7747
N945 X2.5167 Y-2.7787
N950 X2.4807 Y-2.7897
N955 X2.4568 Y-2.7958
N960 X2.4418 Y-2.7995
N965 X2.4105 Y-2.8047
N970 X2.3969 Y-2.8061
N975 X2.3669 Y-2.8086
N980 X2.3519 Y-2.8095
N985 X2.3369 Y-2.8099
N990 X2.3219 Y-2.81
N995 X1.2581
N1000 X1.2431 Y-2.8099
N1005 X1.2281 Y-2.8095
N1010 X1.2131 Y-2.8086
N1015 X1.1831 Y-2.8061
N1020 X1.1695 Y-2.8047
N1025 X1.1382 Y-2.7995
N1030 X1.1232 Y-2.7958
N1035 X1.0993 Y-2.7897
N1040 X1.0633 Y-2.7787
N1045 X1.0532 Y-2.7747
N1050 X1.0483 Y-2.7726
N1055 X1.0333 Y-2.766
N1060 X1.0183 Y-2.759
N1065 X1.0033 Y-2.7519
N1070 X0.9883 Y-2.7446
N1075 X0.9416 Y-2.72
N1080 X0.9021 Y-2.703
N1085 X0.8516 Y-2.686
N1090 X0.7999 Y-2.673
N1095 X0.7476 Y-2.6629
N1100 X0.6948 Y-2.6551
N1105 X0.6419 Y-2.649
N1110 X0.5888 Y-2.6443
N1115 X0.5357 Y-2.6406
N1120 X0.4824 Y-2.6377
N1125 X0.4292 Y-2.6355
N1130 X0.3789 Y-2.6178
N1135 X0.336 Y-2.5863
N1140 X0.3002 Y-2.5467
N1145 X0.271 Y-2.5022
N1150 X0.2472 Y-2.4545
N1155 X0.228 Y-2.4048
N1160 X0.2125 Y-2.3538
N1165 X0.2002 Y-2.302
N1170 X0.1903 Y-2.2496
N1175 X0.1824 Y-2.1969
N1180 X0.1762 Y-2.144
N1185 X0.1712 Y-2.0909
N1190 X0.1673 Y-2.0378
N1195 X0.1642 Y-1.9846
N1200 X0.1617 Y-1.9313
N1205 X0.1598 Y-1.8781
N1210 X0.1583 Y-1.8248
N1215 X0.157 Y-1.7715
N1220 X0.1561 Y-1.7183
N1225 X0.1553 Y-1.665
N1230 X0.1547 Y-1.6117
N1235 X0.1544 Y-1.5765
N1240 X0.1542 Y-1.5706
N1245 X0.1537 Y-1.5647
N1250 X0.1529 Y-1.5589
N1255 X0.141 Y-1.485
N1260 X0.1378 Y-1.455
N1265 X0.1366 Y-1.44
N1270 X0.131 Y-1.335
N1275 X0.1303 Y-1.32
N1280 X0.1291 Y-1.29
N1285 X0.1303 Y-1.26
N1290 X0.131 Y-1.245
N1295 X0.1366 Y-1.14
N1300 X0.1378 Y-1.125
N1305 X0.1407 Y-1.0718
N1310 X0.1433 Y-1.0186
N1315 X0.1453 Y-0.9653
N1320 X0.1469 Y-0.9121
N1325 X0.1481 Y-0.8588
N1330 X0.1491 Y-0.8055
N1335 X0.1498 Y-0.7522
N1340 X0.1504 Y-0.6989
N1345 X0.1509 Y-0.6456
N1350 X0.1512 Y-0.5924
N1355 X0.1515 Y-0.5391
N1360 X0.1517 Y-0.4858
N1365 X0.1646 Y-0.4341
N1370 X0.1901 Y-0.3873
N1375 X0.2244 Y-0.3465
N1380 X0.2648 Y-0.3118
N1385 X0.3095 Y-0.2827
N1390 X0.3569 Y-0.2584
N1395 X0.4063 Y-0.2385
N1400 X0.457 Y-0.2221
N1405 X0.5018 Y-0.2104
N1410 X0.5185 Y-0.2047
N1415 X0.5342 Y-0.1965
N1420 X0.5484 Y-0.1861
N1425 X0.5609 Y-0.1736
N1430 X0.5688 Y-0.1645
N1435 X0.5824 Y-0.1503
N1440 X0.5987 Y-0.1342
N1445 X0.6751 Y-0.0603
N1450 X0.6908 Y-0.0453
N1455 X0.7036 Y-0.0339
N1460 X0.7081 Y-0.0303
N1465 X0.7186 Y-0.0217
N1470 X0.7935 Y0.0368
N1475 X0.8235 Y0.06
N1480 X0.8317 Y0.0662
N1485 G3 X0.8484 Y0.0916 I-0.0315 J0.0388
N1490 G1 X0.8499 Y0.097 Z-0.3936
N1495 X0.8513 Y0.1023 Z-0.3926
N1500 X0.8528 Y0.1075 Z-0.3911
N1505 X0.8542 Y0.1125 Z-0.3889
N1510 X0.8555 Y0.1172 Z-0.3862
N1515 X0.8567 Y0.1217 Z-0.383
N1520 X0.8578 Y0.1257 Z-0.3792
N1525 X0.8588 Y0.1293 Z-0.375
N1530 X0.8597 Y0.1324 Z-0.3705
N1535 X0.8604 Y0.135 Z-0.3656
N1540 X0.861 Y0.1371 Z-0.3604
N1545 X0.8614 Y0.1386 Z-0.355
N1550 X0.8617 Y0.1395 Z-0.3495
N1555 X0.8618 Y0.1398 Z-0.3439
N1560 G0 Z0.2
N1565 G1 X0.0963 Y-1.1938 F500.
N1570 G0 Z-0.2939
N1575 G1 Z-0.3439 F22.8
N1580 X0.0965 Y-1.1935 Z-0.3495
N1585 X0.097 Y-1.1928 Z-0.355
N1590 X0.0979 Y-1.1915 Z-0.3604
N1595 X0.0992 Y-1.1898 Z-0.3656
N1600 X0.1008 Y-1.1876 Z-0.3705
N1605 X0.1028 Y-1.185 Z-0.375
N1610 X0.105 Y-1.182 Z-0.3792
N1615 X0.1075 Y-1.1787 Z-0.383
N1620 X0.1102 Y-1.175 Z-0.3862
N1625 X0.1132 Y-1.1711 Z-0.3889
N1630 X0.1163 Y-1.1669 Z-0.3911
N1635 X0.1195 Y-1.1626 Z-0.3926
N1640 X0.1228 Y-1.1581 Z-0.3936
N1645 X0.1261 Y-1.1536 Z-0.3939
N1650 G3 X0.1378 Y-1.125 I-0.05 J0.0372
N1655 G1 X0.141 Y-1.095
N1660 X0.1604 Y-0.9751
N1665 X0.1656 Y-0.9451
N1670 X0.1687 Y-0.9301
N1675 X0.1726 Y-0.9151
N1680 X0.2095 Y-0.7801
N1685 X0.22 Y-0.7501
N1690 X0.2241 Y-0.7388
N1695 X0.2668 Y-0.6302
N1700 X0.2691 Y-0.6243
N1705 X0.2841 Y-0.5903
N1710 X0.2865 Y-0.5852
N1715 X0.344 Y-0.4749
N1720 X0.3492 Y-0.4652
N1725 X0.359 Y-0.4477
N1730 X0.3661 Y-0.4352
N1735 X0.376 Y-0.4202
N1740 X0.446 Y-0.3152
N1745 X0.4489 Y-0.3111
N1750 X0.4685 Y-0.2852
N1755 X0.4789 Y-0.2719
N1760 X0.5552 Y-0.1803
N1765 X0.5609 Y-0.1736
N1770 G3 X0.5719 Y-0.1452 I-0.039 J0.0313
N1775 G1 X0.5722 Y-0.1396 Z-0.3936
N1780 X0.5725 Y-0.1341 Z-0.3926
N1785 X0.5728 Y-0.1287 Z-0.3911
N1790 X0.5731 Y-0.1235 Z-0.3889
N1795 X0.5734 Y-0.1186 Z-0.3862
N1800 X0.5736 Y-0.1141 Z-0.383
N1805 X0.5739 Y-0.1099 Z-0.3792
N1810 X0.5741 Y-0.1062 Z-0.375
N1815 X0.5743 Y-0.1029 Z-0.3705
N1820 X0.5744 Y-0.1002 Z-0.3656
N1825 X0.5745 Y-0.0981 Z-0.3604
N1830 X0.5746 Y-0.0965 Z-0.355
N1835 X0.5747 Y-0.0956 Z-0.3495
N1840 Y-0.0953 Z-0.3439
N1845 G0 Z0.2
N1850 G1 X2.5467 Y0.2312 F500.
N1855 G0 Z-0.2939
N1860 G1 Z-0.3439 F22.8
N1865 X2.5468 Y0.2309 Z-0.3495
N1870 X2.5473 Y0.2301 Z-0.355
N1875 X2.548 Y0.2287 Z-0.3604
N1880 X2.549 Y0.2268 Z-0.3656
N1885 X2.5503 Y0.2244 Z-0.3705
N1890 X2.5519 Y0.2216 Z-0.375
N1895 X2.5537 Y0.2183 Z-0.3792
N1900 X2.5557 Y0.2146 Z-0.383
N1905 X2.5579 Y0.2106 Z-0.3862
N1910 X2.5602 Y0.2063 Z-0.3889
N1915 X2.5627 Y0.2018 Z-0.3911
N1920 X2.5653 Y0.197 Z-0.3926
N1925 X2.5679 Y0.1922 Z-0.3936
N1930 X2.5706 Y0.1873 Z-0.3939
N1935 G3 X2.5917 Y0.1646 I0.0547 J0.0298
N1940 G1 X2.6066 Y0.1557
N1945 X2.713 Y0.0897
N1950 X2.7265 Y0.0812
N1955 X2.7366 Y0.0747
N1960 X2.7415 Y0.0713
N1965 X2.7569 Y0.0597
N1970 X2.7865 Y0.0368
N1975 X2.8314 Y0.0017
N1980 X2.8662 Y-0.0228
N1985 X2.8962 Y-0.0404
N1990 X2.9342 Y-0.0589
N1995 X2.9835 Y-0.0781
N2000 X3.0345 Y-0.0934
N2005 X3.0864 Y-0.1055
N2010 X3.1375 Y-0.1206
N2015 X3.1842 Y-0.1464
N2020 X3.2252 Y-0.1804
N2025 X3.2605 Y-0.2204
N2030 X3.2903 Y-0.2645
N2035 X3.3153 Y-0.3116
N2040 X3.3361 Y-0.3607
N2045 X3.3532 Y-0.4111
N2050 X3.3673 Y-0.4625
N2055 X3.3788 Y-0.5146
N2060 X3.3882 Y-0.567
N2065 X3.3958 Y-0.6198
N2070 X3.402 Y-0.6727
N2075 X3.407 Y-0.7257
N2080 X3.411 Y-0.7789
N2085 X3.4143 Y-0.8321
N2090 X3.4169 Y-0.8853
N2095 X3.419 Y-0.9386
N2100 X3.4201 Y-0.9717
N2105 X3.4203 Y-0.9767
N2110 X3.4208 Y-0.9817
N2115 X3.4215 Y-0.9867
N2120 X3.439 Y-1.095
N2125 X3.4422 Y-1.125
N2130 X3.4434 Y-1.14
N2135 X3.449 Y-1.245
N2140 X3.4497 Y-1.26
N2145 X3.4509 Y-1.29
N2150 X3.4497 Y-1.32
N2155 X3.449 Y-1.335
N2160 X3.4434 Y-1.44
N2165 X3.4422 Y-1.455
N2170 X3.4393 Y-1.5082
N2175 X3.4367 Y-1.5614
N2180 X3.4347 Y-1.6147
N2185 X3.4331 Y-1.6679
N2190 X3.4319 Y-1.7212
N2195 X3.4309 Y-1.7745
N2200 X3.4302 Y-1.8278
N2205 X3.4296 Y-1.8811
N2210 X3.4291 Y-1.9344
N2215 X3.4288 Y-1.9876
N2220 X3.4285 Y-2.0409
N2225 X3.4283 Y-2.0942
N2230 X3.4154 Y-2.1459
N2235 X3.3899 Y-2.1927
N2240 X3.3556 Y-2.2335
N2245 X3.3152 Y-2.2682
N2250 X3.2705 Y-2.2973
N2255 X3.2231 Y-2.3216
N2260 X3.1737 Y-2.3415
N2265 X3.123 Y-2.3579
N2270 X3.0782 Y-2.3696
N2275 X3.0615 Y-2.3753
N2280 X3.0458 Y-2.3835
N2285 X3.0316 Y-2.3939
N2290 X3.0191 Y-2.4064
N2295 X3.0112 Y-2.4155
N2300 X2.9976 Y-2.4297
N2305 X2.9813 Y-2.4458
N2310 X2.9049 Y-2.5197
N2315 X2.8892 Y-2.5347
N2320 X2.8764 Y-2.5461
N2325 X2.8719 Y-2.5497
N2330 X2.8614 Y-2.5583
N2335 X2.7865 Y-2.6168
N2340 X2.7565 Y-2.64
N2345 X2.7483 Y-2.6462
N2350 G3 X2.7316 Y-2.6716 I0.0315 J-0.0388
N2355 G1 X2.7301 Y-2.677 Z-0.3936
N2360 X2.7287 Y-2.6823 Z-0.3926
N2365 X2.7272 Y-2.6875 Z-0.3911
N2370 X2.7258 Y-2.6925 Z-0.3889
N2375 X2.7245 Y-2.6972 Z-0.3862
N2380 X2.7233 Y-2.7017 Z-0.383
N2385 X2.7222 Y-2.7057 Z-0.3792
N2390 X2.7212 Y-2.7093 Z-0.375
N2395 X2.7203 Y-2.7124 Z-0.3705
N2400 X2.7196 Y-2.715 Z-0.3656
N2405 X2.719 Y-2.7171 Z-0.3604
N2410 X2.7186 Y-2.7186 Z-0.355
N2415 X2.7183 Y-2.7195 Z-0.3495
N2420 X2.7182 Y-2.7198 Z-0.3439
N2425 G0 Z0.2
N2430 G1 X3.4837 Y-1.3862 F500.
N2435 G0 Z-0.2939
N2440 G1 Z-0.3439 F22.8
N2445 X3.4835 Y-1.3865 Z-0.3495
N2450 X3.483 Y-1.3872 Z-0.355
N2455 X3.4821 Y-1.3885 Z-0.3604
N2460 X3.4808 Y-1.3902 Z-0.3656
N2465 X3.4792 Y-1.3924 Z-0.3705
N2470 X3.4772 Y-1.395 Z-0.375
N2475 X3.475 Y-1.398 Z-0.3792
N2480 X3.4725 Y-1.4013 Z-0.383
N2485 X3.4698 Y-1.405 Z-0.3862
N2490 X3.4668 Y-1.4089 Z-0.3889
N2495 X3.4637 Y-1.4131 Z-0.3911
N2500 X3.4605 Y-1.4174 Z-0.3926
N2505 X3.4572 Y-1.4219 Z-0.3936
N2510 X3.4539 Y-1.4264 Z-0.3939
N2515 G3 X3.4422 Y-1.455 I0.05 J-0.0372
N2520 G1 X3.439 Y-1.485
N2525 X3.4196 Y-1.6049
N2530 X3.4144 Y-1.6349
N2535 X3.4113 Y-1.6499
N2540 X3.4074 Y-1.6649
N2545 X3.3705 Y-1.7999
N2550 X3.36 Y-1.8299
N2555 X3.3559 Y-1.8412
N2560 X3.3132 Y-1.9498
N2565 X3.3109 Y-1.9557
N2570 X3.2959 Y-1.9897
N2575 X3.2935 Y-1.9948
N2580 X3.236 Y-2.1051
N2585 X3.2308 Y-2.1148
N2590 X3.221 Y-2.1323
N2595 X3.2139 Y-2.1448
N2600 X3.204 Y-2.1598
N2605 X3.134 Y-2.2648
N2610 X3.1311 Y-2.2689
N2615 X3.1115 Y-2.2948
N2620 X3.1011 Y-2.3081
N2625 X3.0248 Y-2.3997
N2630 X3.0191 Y-2.4064
N2635 G3 X3.0082 Y-2.4348 I0.039 J-0.0313
N2640 G1 X3.0078 Y-2.4404 Z-0.3936
N2645 X3.0075 Y-2.4459 Z-0.3926
N2650 X3.0072 Y-2.4513 Z-0.3911
N2655 X3.0069 Y-2.4565 Z-0.3889
N2660 X3.0066 Y-2.4614 Z-0.3862
N2665 X3.0064 Y-2.4659 Z-0.383
N2670 X3.0061 Y-2.4701 Z-0.3792
N2675 X3.0059 Y-2.4738 Z-0.375
N2680 X3.0057 Y-2.4771 Z-0.3705
N2685 X3.0056 Y-2.4798 Z-0.3656
N2690 X3.0055 Y-2.4819 Z-0.3604
N2695 X3.0054 Y-2.4835 Z-0.355
N2700 X3.0053 Y-2.4844 Z-0.3495
N2705 Y-2.4847 Z-0.3439
N2710 G0 Z0.2
N2715 G1 X1.0333 Y-2.8112 F500.
N2720 G0 Z-0.2939
N2725 G1 Z-0.3439 F22.8
N2730 X1.0332 Y-2.8109 Z-0.3495
N2735 X1.0327 Y-2.8101 Z-0.355
N2740 X1.032 Y-2.8087 Z-0.3604
N2745 X1.031 Y-2.8068 Z-0.3656
N2750 X1.0297 Y-2.8044 Z-0.3705
N2755 X1.0281 Y-2.8016 Z-0.375
N2760 X1.0263 Y-2.7983 Z-0.3792
N2765 X1.0243 Y-2.7946 Z-0.383
N2770 X1.0221 Y-2.7906 Z-0.3862
N2775 X1.0198 Y-2.7863 Z-0.3889
N2780 X1.0173 Y-2.7818 Z-0.3911
N2785 X1.0147 Y-2.777 Z-0.3926
N2790 X1.0121 Y-2.7722 Z-0.3936
N2795 X1.0094 Y-2.7673 Z-0.3939
N2800 G3 X0.9883 Y-2.7446 I-0.0547 J-0.0298
N2805 G1 X0.9734 Y-2.7357
N2810 X0.867 Y-2.6697
N2815 X0.8535 Y-2.6612
N2820 X0.8434 Y-2.6547
N2825 X0.8385 Y-2.6513
N2830 X0.8231 Y-2.6397
N2835 X0.7935 Y-2.6168
N2840 X0.7486 Y-2.5817
N2845 X0.7138 Y-2.5572
N2850 X0.6679 Y-2.5302
N2855 X0.6218 Y-2.5034
N2860 X0.5801 Y-2.4702
N2865 X0.5432 Y-2.4317
N2870 X0.5113 Y-2.3891
N2875 X0.484 Y-2.3433
N2880 X0.461 Y-2.2952
N2885 X0.4587 Y-2.2894
N2890 X0.4551 Y-2.2809
N2895 X0.4508 Y-2.2727
N2900 X0.446 Y-2.2648
N2905 X0.374 Y-2.1567
N2910 X0.3661 Y-2.1448
N2915 X0.3576 Y-2.1298
N2920 X0.3492 Y-2.1148
N2925 X0.344 Y-2.1051
N2930 X0.2865 Y-1.9948
N2935 X0.2841 Y-1.9897
N2940 X0.2691 Y-1.9557
N2945 X0.2668 Y-1.9498
N2950 X0.2241 Y-1.8412
N2955 X0.22 Y-1.8299
N2960 X0.2095 Y-1.7999
N2965 X0.1726 Y-1.6649
N2970 X0.1687 Y-1.6499
N2975 X0.1656 Y-1.6349
N2980 X0.1604 Y-1.6049
N2985 X0.1529 Y-1.5589
N2990 G3 X0.1382 Y-1.5323 I-0.0491 J-0.0097
N2995 G1 X0.1342 Y-1.5284 Z-0.3936
N3000 X0.1301 Y-1.5246 Z-0.3926
N3005 X0.1262 Y-1.5209 Z-0.3911
N3010 X0.1225 Y-1.5173 Z-0.3889
N3015 X0.1189 Y-1.514 Z-0.3862
N3020 X0.1156 Y-1.5108 Z-0.383
N3025 X0.1125 Y-1.508 Z-0.3792
N3030 X0.1098 Y-1.5054 Z-0.375
N3035 X0.1075 Y-1.5032 Z-0.3705
N3040 X0.1055 Y-1.5013 Z-0.3656
N3045 X0.1039 Y-1.4998 Z-0.3604
N3050 X0.1028 Y-1.4988 Z-0.355
N3055 X0.1021 Y-1.4981 Z-0.3495
N3060 X0.1019 Y-1.4979 Z-0.3439
N3065 G0 Z0.2
N3070 G1 X0.7848 Y-2.6534 F500.
N3075 G0 Z-0.2939
N3080 G1 Z-0.3439 F22.8
N3085 X0.7847 Y-2.6531 Z-0.3495
N3090 X0.7843 Y-2.6522 Z-0.355
N3095 X0.7838 Y-2.6508 Z-0.3604
N3100 X0.783 Y-2.6488 Z-0.3656
N3105 X0.782 Y-2.6462 Z-0.3705
N3110 X0.7808 Y-2.6432 Z-0.375
N3115 X0.7795 Y-2.6397 Z-0.3792
N3120 X0.7779 Y-2.6358 Z-0.383
N3125 X0.7763 Y-2.6316 Z-0.3862
N3130 X0.7745 Y-2.627 Z-0.3889
N3135 X0.7726 Y-2.6222 Z-0.3911
N3140 X0.7707 Y-2.6172 Z-0.3926
N3145 X0.7687 Y-2.612 Z-0.3936
N3150 X0.7666 Y-2.6068 Z-0.3939
N3155 G3 X0.7486 Y-2.5817 I-0.0581 J-0.0226
N3160 G1 X0.7186 Y-2.5583
N3165 X0.7081 Y-2.5497
N3170 X0.7036 Y-2.5461
N3175 X0.6908 Y-2.5347
N3180 X0.6737 Y-2.5184
N3185 X0.5977 Y-2.4447
N3190 X0.5824 Y-2.4297
N3195 X0.5688 Y-2.4155
N3200 X0.5552 Y-2.3997
N3205 X0.4789 Y-2.3081
N3210 X0.4685 Y-2.2948
N3215 X0.4489 Y-2.2689
N3220 X0.446 Y-2.2648
N3225 G3 X0.421 Y-2.2474 I-0.0397 J-0.0304
N3230 G1 X0.4156 Y-2.2457 Z-0.3936
N3235 X0.4104 Y-2.2441 Z-0.3926
N3240 X0.4052 Y-2.2425 Z-0.3911
N3245 X0.4003 Y-2.241 Z-0.3889
N3250 X0.3956 Y-2.2395 Z-0.3862
N3255 X0.3912 Y-2.2381 Z-0.383
N3260 X0.3872 Y-2.2369 Z-0.3792
N3265 X0.3836 Y-2.2358 Z-0.375
N3270 X0.3806 Y-2.2349 Z-0.3705
N3275 X0.378 Y-2.234 Z-0.3656
N3280 X0.3759 Y-2.2334 Z-0.3604
N3285 X0.3744 Y-2.233 Z-0.355
N3290 X0.3735 Y-2.2327 Z-0.3495
N3295 X0.3732 Y-2.2326 Z-0.3439
N3300 G0 Z0.2
N3305 G1 X2.7952 Y0.0734 F500.
N3310 G0 Z-0.2939
N3315 G1 Z-0.3439 F22.8
N3320 X2.7953 Y0.0731 Z-0.3495
N3325 X2.7957 Y0.0722 Z-0.355
N3330 X2.7962 Y0.0708 Z-0.3604
N3335 X2.797 Y0.0688 Z-0.3656
N3340 X2.798 Y0.0662 Z-0.3705
N3345 X2.7992 Y0.0632 Z-0.375
N3350 X2.8005 Y0.0597 Z-0.3792
N3355 X2.8021 Y0.0558 Z-0.383
N3360 X2.8037 Y0.0516 Z-0.3862
N3365 X2.8055 Y0.047 Z-0.3889
N3370 X2.8074 Y0.0422 Z-0.3911
N3375 X2.8093 Y0.0372 Z-0.3926
N3380 X2.8113 Y0.032 Z-0.3936
N3385 X2.8134 Y0.0268 Z-0.3939
N3390 G3 X2.8314 Y0.0017 I0.0581 J0.0226
N3395 G1 X2.8614 Y-0.0217
N3400 X2.8719 Y-0.0303
N3405 X2.8764 Y-0.0339
N3410 X2.8892 Y-0.0453
N3415 X2.9063 Y-0.0616
N3420 X2.9823 Y-0.1353
N3425 X2.9976 Y-0.1503
N3430 X3.0112 Y-0.1645
N3435 X3.0248 Y-0.1803
N3440 X3.1011 Y-0.2719
N3445 X3.1115 Y-0.2852
N3450 X3.1311 Y-0.3111
N3455 X3.134 Y-0.3152
N3460 X3.206 Y-0.4233
N3465 X3.2139 Y-0.4352
N3470 X3.2224 Y-0.4502
N3475 X3.2308 Y-0.4652
N3480 X3.236 Y-0.4749
N3485 X3.2935 Y-0.5852
N3490 X3.2959 Y-0.5903
N3495 X3.3109 Y-0.6243
N3500 X3.3132 Y-0.6302
N3505 X3.3559 Y-0.7388
N3510 X3.36 Y-0.7501
N3515 X3.3705 Y-0.7801
N3520 X3.4074 Y-0.9151
N3525 X3.4113 Y-0.9301
N3530 X3.4144 Y-0.9451
N3535 X3.4196 Y-0.9751
N3540 X3.4215 Y-0.9867
N3545 X3.4229 Y-0.9907 Z-0.3936
N3550 X3.4242 Y-0.9947 Z-0.3927
N3555 X3.4254 Y-0.9985 Z-0.3912
N3560 X3.4274 Y-1.0016 Z-0.3893
N3565 X3.4292 Y-1.0044 Z-0.387
N3570 X3.4308 Y-1.0069 Z-0.3842
N3575 X3.4322 Y-1.009 Z-0.3811
N3580 X3.4336 Y-1.0106 Z-0.3778
N3585 X3.4348 Y-1.0117 Z-0.3743
N3590 X3.4356 Y-1.0126 Z-0.3706
N3595 X3.4361 Y-1.0131 Z-0.3668
N3600 X3.4362 Y-1.0133 Z-0.363
N3605 G0 Z0.2
N3610 G1 X1.5549 Y-1.3238 F500.
N3615 G0 Z0.1
N3620 G3 X1.5529 Y-1.3031 Z0.0486 I0.2351 J0.0338 F22.8
N3625 X1.5526 Y-1.2824 Z-0.0028 I0.2371 J0.0131
N3630 X1.5542 Y-1.2618 Z-0.0542 I0.2374 J-0.0076
N3635 X1.5575 Y-1.2413 Z-0.1055 I0.2358 J-0.0282
N3640 X1.5627 Y-1.2212 Z-0.1569 I0.2325 J-0.0487
N3645 X1.5695 Y-1.2017 Z-0.2083 I0.2273 J-0.0688
N3650 X1.5781 Y-1.1828 Z-0.2597 I0.2205 J-0.0883
N3655 X1.5882 Y-1.1648 Z-0.3111 I0.2119 J-0.1072
N3660 X1.5999 Y-1.1476 Z-0.3625 I0.2018 J-0.1252
N3665 X2.0275 Y-1.29 Z-0.3939 I0.1901 J-0.1424
N3670 X1.5525 I-0.2375 J0.
N3675 X2.0275 I0.2375 J0.
N3680 G1 X2.0277 Y-1.2767
N3685 X2.0293 Y-1.2635
N3690 X2.042 Y-1.2117
N3695 X2.0452 Y-1.2046
N3700 X2.0482 Y-1.1963
N3705 X2.0507 Y-1.1871
N3710 X2.0526 Y-1.1767
N3715 X2.0538 Y-1.1653
N3720 X2.0541 Y-1.153
N3725 X2.0533 Y-1.1398
N3730 X2.0513 Y-1.1257
N3735 X2.0481 Y-1.111
N3740 X2.0433 Y-1.0957
N3745 X2.0371 Y-1.0799
N3750 X2.0292 Y-1.064
N3755 X2.0196 Y-1.0479
N3760 X2.0082 Y-1.032
N3765 X1.995 Y-1.0164
N3770 X1.9801 Y-1.0014
N3775 X1.9635 Y-0.9871
N3780 X1.9451 Y-0.9737
N3785 X1.9251 Y-0.9615
N3790 X1.9037 Y-0.9507
N3795 X1.8808 Y-0.9413
N3800 X1.8567 Y-0.9337
N3805 X1.8316 Y-0.9278
N3810 X1.8056 Y-0.924
N3815 X1.7789 Y-0.9222
N3820 X1.7518 Y-0.9226
N3825 X1.7244 Y-0.9252
N3830 X1.6969 Y-0.93
N3835 X1.6696 Y-0.9371
N3840 X1.6428 Y-0.9464
N3845 X1.6165 Y-0.958
N3850 X1.5911 Y-0.9718
N3855 X1.5667 Y-0.9876
N3860 X1.5435 Y-1.0055
N3865 X1.5217 Y-1.0253
N3870 X1.5014 Y-1.0468
N3875 X1.4829 Y-1.0701
N3880 X1.4663 Y-1.0948
N3885 X1.4516 Y-1.1208
N3890 X1.439 Y-1.148
N3895 X1.4287 Y-1.1762
N3900 X1.4206 Y-1.2052
N3905 X1.4149 Y-1.2348
N3910 X1.4115 Y-1.2649
N3915 X1.4106 Y-1.2951
N3920 X1.4121 Y-1.3254
N3925 X1.416 Y-1.3554
N3930 X1.4224 Y-1.3851
N3935 X1.4311 Y-1.4142
N3940 X1.4421 Y-1.4425
N3945 X1.4554 Y-1.4699
N3950 X1.4708 Y-1.4961
N3955 X1.4883 Y-1.5211
N3960 X1.5078 Y-1.5445
N3965 X1.529 Y-1.5663
N3970 X1.552 Y-1.5864
N3975 X1.5765 Y-1.6045
N3980 X1.6024 Y-1.6206
N3985 X1.6295 Y-1.6346
N3990 X1.6576 Y-1.6464
N3995 X1.6866 Y-1.6559
N4000 X1.7163 Y-1.663
N4005 X1.7465 Y-1.6677
N4010 X1.7769 Y-1.67
N4015 X1.8074 Y-1.6699
N4020 X1.8378 Y-1.6672
N4025 X1.868 Y-1.6622
N4030 X1.8976 Y-1.6547
N4035 X1.9265 Y-1.6449
N4040 X1.9545 Y-1.6328
N4045 X1.9815 Y-1.6185
N4050 X2.0073 Y-1.6021
N4055 X2.0316 Y-1.5837
N4060 X2.0544 Y-1.5633
N4065 X2.0755 Y-1.5413
N4070 X2.0947 Y-1.5175
N4075 X2.112 Y-1.4923
N4080 X2.1385 Y-1.4461
N4085 X2.1624 Y-1.3985
N4090 X2.1806 Y-1.3546
N4095 X2.1934 Y-1.315
N4100 X2.2022 Y-1.2779
N4105 X2.2076 Y-1.2426
N4110 X2.2101 Y-1.2081
N4115 X2.2098 Y-1.1743
N4120 X2.2068 Y-1.1412
N4125 X2.2013 Y-1.1087
N4130 X2.1932 Y-1.0769
N4135 X2.1825 Y-1.0458
N4140 X2.1694 Y-1.0155
N4145 X2.1537 Y-0.9862
N4150 X2.1356 Y-0.958
N4155 X2.115 Y-0.931
N4160 X2.0921 Y-0.9054
N4165 X2.0669 Y-0.8815
N4170 X2.0394 Y-0.8594
N4175 X2.0099 Y-0.8392
N4180 X1.9784 Y-0.8213
N4185 X1.9452 Y-0.8058
N4190 X1.9105 Y-0.7928
N4195 X1.8744 Y-0.7826
N4200 X1.8372 Y-0.7751
N4205 X1.7991 Y-0.7707
N4210 X1.7604 Y-0.7693
N4215 X1.7213 Y-0.771
N4220 X1.72 Y-0.7712
N4225 X1.7075 Y-0.7735
N4230 X1.6954 Y-0.7771
N4235 X1.6837 Y-0.782
N4240 X1.6776 Y-0.7849
N4245 X1.6626 Y-0.7919
N4250 X1.6476 Y-0.7985
N4255 X1.6177 Y-0.811
N4260 X1.6027 Y-0.8172
N4265 X1.5877 Y-0.8236
N4270 X1.5534 Y-0.8401
N4275 X1.5428 Y-0.8456
N4280 X1.5023 Y-0.8701
N4285 X1.4978 Y-0.8733
N4290 X1.4631 Y-0.9001
N4295 X1.4529 Y-0.9085
N4300 X1.4309 Y-0.9301
N4305 X1.4159 Y-0.9451
N4310 X1.4079 Y-0.9538
N4315 X1.3909 Y-0.9751
N4320 X1.3779 Y-0.992
N4325 X1.368 Y-1.0051
N4330 X1.3629 Y-1.0131
N4335 X1.3589 Y-1.0201
N4340 X1.348 Y-1.0393
N4345 X1.3334 Y-1.0651
N4350 X1.333 Y-1.0658
N4355 X1.3268 Y-1.08
N4360 X1.3141 Y-1.11
N4365 X1.3017 Y-1.14
N4370 X1.2858 Y-1.1829
N4375 X1.2765 Y-1.2156
N4380 X1.2698 Y-1.2498
N4385 X1.2657 Y-1.2853
N4390 X1.2644 Y-1.3222
N4395 X1.2652 Y-1.3405
N4400 X1.2672 Y-1.3573
N4405 X1.2716 Y-1.3736
N4410 X1.2784 Y-1.3891
N4415 G3 X1.3715 Y-1.3706 I0.0435 J0.0247
N4420 G1 X1.385 Y-1.2611
N4425 X1.3966 Y-1.1675
N4430 G3 X1.3017 Y-1.14 I-0.0496 J0.0061
N4435 G1 X1.2953 Y-1.155
N4440 X1.2814 Y-1.185
N4445 X1.273 Y-1.2011
N4450 X1.2657 Y-1.215
N4455 X1.2581 Y-1.2282
N4460 X1.2467 Y-1.245
N4465 X1.236 Y-1.26
N4470 X1.2313 Y-1.2675
N4475 X1.2283 Y-1.275
N4480 X1.2281 Y-1.2756
N4485 X1.2265 Y-1.2828
N4490 X1.226 Y-1.29
N4495 X1.2265 Y-1.2972
N4500 X1.2281 Y-1.3044
N4505 X1.2283 Y-1.305
N4510 X1.2313 Y-1.3125
N4515 X1.2359 Y-1.32
N4520 X1.2467 Y-1.335
N4525 X1.2581 Y-1.3518
N4530 X1.2657 Y-1.365
N4535 X1.2736 Y-1.38
N4540 X1.2814 Y-1.395
N4545 X1.2953 Y-1.425
N4550 X1.3017 Y-1.44
N4555 X1.3141 Y-1.47
N4560 X1.3268 Y-1.5
N4565 X1.333 Y-1.5142
N4570 X1.3334 Y-1.5149
N4575 X1.3503 Y-1.5449
N4580 X1.3589 Y-1.5599
N4585 X1.3629 Y-1.5669
N4590 X1.368 Y-1.5749
N4595 X1.3794 Y-1.5899
N4600 X1.3909 Y-1.6049
N4605 X1.4079 Y-1.6262
N4610 X1.4159 Y-1.6349
N4615 X1.4309 Y-1.6499
N4620 X1.4529 Y-1.6715
N4625 X1.4631 Y-1.6799
N4630 X1.4978 Y-1.7067
N4635 X1.5023 Y-1.7099
N4640 X1.5428 Y-1.7344
N4645 X1.5534 Y-1.7399
N4650 X1.5877 Y-1.7564
N4655 X1.6027 Y-1.7628
N4660 X1.6197 Y-1.7699
N4665 X1.6476 Y-1.7815
N4670 X1.679 Y-1.7935
N4675 X1.7112 Y-1.8029
N4680 X1.7455 Y-1.81
N4685 X1.7814 Y-1.8145
N4690 X1.8183 Y-1.8161
N4695 X1.8378 Y-1.8154
N4700 X1.854 Y-1.8137
N4705 X1.8697 Y-1.8097
N4710 X1.8848 Y-1.8036
N4715 G3 X1.8673 Y-1.7098 I-0.0235 J0.0441
N4720 G1 X1.7644 Y-1.6975
N4725 X1.6754 Y-1.6868
N4730 G3 X1.6476 Y-1.7815 I-0.006 J-0.0496
N4735 G1 X1.6626 Y-1.7881
N4740 X1.6776 Y-1.7951
N4745 X1.6926 Y-1.8023
N4750 X1.7076 Y-1.8097
N4755 X1.717 Y-1.8149
N4760 X1.7226 Y-1.8184
N4765 X1.7401 Y-1.8299
N4770 X1.7525 Y-1.8387
N4775 X1.7612 Y-1.8449
N4780 X1.7675 Y-1.8487
N4785 X1.775 Y-1.8517
N4790 X1.7825 Y-1.8535
N4795 X1.79 Y-1.854
N4800 X1.7975 Y-1.8535
N4805 X1.805 Y-1.8517
N4810 X1.8125 Y-1.8487
N4815 X1.8188 Y-1.8449
N4820 X1.8275 Y-1.8387
N4825 X1.8399 Y-1.8299
N4830 X1.8574 Y-1.8184
N4835 X1.863 Y-1.8149
N4840 X1.8724 Y-1.8097
N4845 X1.8925 Y-1.7999
N4850 X1.9024 Y-1.7951
N4855 X1.9174 Y-1.7881
N4860 X1.9324 Y-1.7815
N4865 X1.9623 Y-1.769
N4870 X1.9773 Y-1.7627
N4875 X1.9923 Y-1.7564
N4880 X2.0266 Y-1.7399
N4885 X2.0372 Y-1.7344
N4890 X2.0776 Y-1.7099
N4895 X2.0822 Y-1.7067
N4900 X2.1169 Y-1.6799
N4905 X2.1271 Y-1.6714
N4910 X2.149 Y-1.6499
N4915 X2.1641 Y-1.6349
N4920 X2.1721 Y-1.6261
N4925 X2.1891 Y-1.6049
N4930 X2.2021 Y-1.588
N4935 X2.212 Y-1.5749
N4940 X2.2171 Y-1.5669
N4945 X2.2211 Y-1.5599
N4950 X2.232 Y-1.5407
N4955 X2.2466 Y-1.5149
N4960 X2.247 Y-1.5141
N4965 X2.2532 Y-1.5
N4970 X2.2659 Y-1.47
N4975 X2.2782 Y-1.44
N4980 X2.2847 Y-1.425
N4985 X2.2986 Y-1.395
N4990 X2.3064 Y-1.38
N4995 X2.3246 Y-1.341
N5000 X2.3299 Y-1.3266
N5005 X2.3347 Y-1.3102
N5010 X2.337 Y-1.2933
N5015 X2.3368 Y-1.2762
N5020 X2.3342 Y-1.2594
N5025 X2.3291 Y-1.2431
N5030 X2.3217 Y-1.2277
N5035 G3 X2.2299 Y-1.2463 I-0.0424 J-0.0264
N5040 G1 X2.2137 Y-1.3472
N5045 G3 X2.3064 Y-1.38 I0.0494 J-0.0079
N5050 G1 X2.3143 Y-1.365
N5055 X2.3219 Y-1.3518
N5060 X2.3333 Y-1.335
N5065 X2.344 Y-1.32
N5070 X2.3487 Y-1.3125
N5075 X2.3517 Y-1.305
N5080 X2.3519 Y-1.3044
N5085 X2.3535 Y-1.2972
N5090 X2.354 Y-1.29
N5095 X2.3535 Y-1.2828
N5100 X2.3519 Y-1.2756
N5105 X2.3517 Y-1.275
N5110 X2.3487 Y-1.2675
N5115 X2.3441 Y-1.26
N5120 X2.3333 Y-1.245
N5125 X2.3219 Y-1.2282
N5130 X2.3143 Y-1.215
N5135 X2.3064 Y-1.2
N5140 X2.2986 Y-1.185
N5145 X2.2847 Y-1.155
N5150 X2.2783 Y-1.14
N5155 X2.2659 Y-1.11
N5160 X2.2532 Y-1.08
N5165 X2.247 Y-1.0659
N5170 X2.2466 Y-1.0651
N5175 X2.2297 Y-1.0351
N5180 X2.2211 Y-1.0201
N5185 X2.2171 Y-1.0131
N5190 X2.212 Y-1.0051
N5195 X2.2006 Y-0.9901
N5200 X2.1891 Y-0.9751
N5205 X2.1721 Y-0.9539
N5210 X2.1641 Y-0.9451
N5215 X2.149 Y-0.9301
N5220 X2.1271 Y-0.9086
N5225 X2.1169 Y-0.9001
N5230 X2.0822 Y-0.8733
N5235 X2.0776 Y-0.8701
N5240 X2.0372 Y-0.8456
N5245 X2.0266 Y-0.8401
N5250 X1.9923 Y-0.8236
N5255 X1.9773 Y-0.8173
N5260 X1.9603 Y-0.8101
N5265 X1.9324 Y-0.7985
N5270 X1.9174 Y-0.7919
N5275 X1.9024 Y-0.7849
N5280 X1.8874 Y-0.7777
N5285 X1.8724 Y-0.7703
N5290 X1.863 Y-0.7651
N5295 X1.8574 Y-0.7616
N5300 X1.8399 Y-0.7501
N5305 X1.8275 Y-0.7413
N5310 X1.8188 Y-0.7351
N5315 X1.8125 Y-0.7313
N5320 X1.805 Y-0.7283
N5325 X1.7975 Y-0.7265
N5330 X1.79 Y-0.726
N5335 X1.7825 Y-0.7265
N5340 X1.775 Y-0.7283
N5345 X1.7675 Y-0.7313
N5350 X1.7612 Y-0.7351
N5355 X1.7525 Y-0.7413
N5360 X1.7401 Y-0.7501
N5365 X1.7293 Y-0.7572
N5370 X1.7262 Y-0.7601 Z-0.3936
N5375 X1.7231 Y-0.7629 Z-0.3927
N5380 X1.7201 Y-0.7656 Z-0.3912
N5385 X1.7181 Y-0.7686 Z-0.3893
N5390 X1.7163 Y-0.7714 Z-0.387
N5395 X1.7147 Y-0.7739 Z-0.3842
N5400 X1.7132 Y-0.7761 Z-0.3811
N5405 X1.7124 Y-0.778 Z-0.3778
N5410 X1.7118 Y-0.7795 Z-0.3743
N5415 X1.7113 Y-0.7806 Z-0.3706
N5420 X1.7111 Y-0.7813 Z-0.3668
N5425 X1.711 Y-0.7815 Z-0.363
N5430 G0 Z-0.2545
N5435 G1 X1.8102 Y-1.0983 F500.
N5440 Z-0.3045 F22.8
N5445 X1.8103 Y-1.0981 Z-0.3101
N5450 X1.8109 Y-1.0973 Z-0.3156
N5455 X1.8118 Y-1.096 Z-0.321
N5460 X1.8131 Y-1.0943 Z-0.3262
N5465 X1.8147 Y-1.0921 Z-0.3311
N5470 X1.8166 Y-1.0895 Z-0.3357
N5475 X1.8187 Y-1.0865 Z-0.3399
N5480 X1.8212 Y-1.0831 Z-0.3436
N5485 X1.8239 Y-1.0794 Z-0.3468
N5490 X1.8268 Y-1.0754 Z-0.3495
N5495 X1.8298 Y-1.0712 Z-0.3517
N5500 X1.833 Y-1.0668 Z-0.3532
N5505 X1.8362 Y-1.0623 Z-0.3542
N5510 X1.8395 Y-1.0578 Z-0.3545
N5515 G3 X1.9757 Y-0.8189 I-1.0342 J0.7483
N5520 G1 X1.9779 Y-0.8134
N5525 X1.977 Y-0.8012
N5530 X1.9739 Y-0.7895
N5535 X1.9686 Y-0.7785
N5540 X1.9614 Y-0.7687
N5545 X1.9525 Y-0.7604
N5550 X1.9423 Y-0.7539
N5555 X1.9174 Y-0.7412
N5560 X1.9064 Y-0.7351
N5565 X1.8874 Y-0.7243
N5570 X1.8811 Y-0.7201
N5575 X1.8724 Y-0.7131
N5580 X1.8445 Y-0.6901
N5585 X1.8424 Y-0.6884
N5590 X1.8374 Y-0.6843
N5595 X1.8312 Y-0.68
N5600 X1.8244 Y-0.6761
N5605 X1.812 Y-0.6714
N5610 X1.7988 Y-0.6689
N5615 X1.7855 Y-0.6687
N5620 X1.7723 Y-0.6707
N5625 X1.7597 Y-0.675
N5630 X1.748 Y-0.6815
N5635 X1.7376 Y-0.6898
N5640 G3 X1.7679 Y-0.8208 I0.0493 J-0.0576
N5645 X1.8424 Y-0.6884 I0.0197 J0.0761
N5650 G1 X1.8275 Y-0.6748
N5655 X1.82 Y-0.6685
N5660 X1.8125 Y-0.6639
N5665 X1.8074 Y-0.6617
N5670 X1.8023 Y-0.6601
N5675 X1.7975 Y-0.6592
N5680 X1.79 Y-0.6587
N5685 X1.7825 Y-0.6592
N5690 X1.778 Y-0.6601
N5695 X1.7728 Y-0.6618
N5700 X1.7675 Y-0.6641
N5705 X1.7602 Y-0.6686
N5710 X1.7529 Y-0.6751
N5715 X1.7376 Y-0.6898
N5720 X1.7076 Y-0.713
N5725 X1.6982 Y-0.7201
N5730 X1.6926 Y-0.7241
N5735 X1.6747 Y-0.7351
N5740 X1.6626 Y-0.7421
N5745 X1.6327 Y-0.7567
N5750 X1.6177 Y-0.7635
N5755 X1.6027 Y-0.7698
N5760 X1.5877 Y-0.776
N5765 X1.5577 Y-0.7878
N5770 X1.5428 Y-0.7944
N5775 X1.5278 Y-0.8023
N5780 X1.5128 Y-0.8106
N5785 X1.4978 Y-0.8195
N5790 X1.4675 Y-0.8401
N5795 X1.4529 Y-0.8508
N5800 X1.4229 Y-0.876
N5805 X1.4125 Y-0.8851
N5810 X1.4079 Y-0.8896
N5815 X1.3977 Y-0.9001
N5820 X1.3779 Y-0.9206
N5825 X1.3691 Y-0.9301
N5830 X1.3629 Y-0.9377
N5835 X1.333 Y-0.9774
N5840 X1.3245 Y-0.9901
N5845 X1.3066 Y-1.0201
N5850 X1.303 Y-1.0264
N5855 X1.2852 Y-1.0651
N5860 X1.279 Y-1.08
N5865 X1.273 Y-1.095
N5870 X1.2669 Y-1.11
N5875 X1.2525 Y-1.14
N5880 X1.245 Y-1.155
N5885 X1.2431 Y-1.1588
N5890 X1.2371 Y-1.17
N5895 X1.2288 Y-1.185
N5900 X1.2081 Y-1.215
N5905 X1.1981 Y-1.2266
N5910 X1.1885 Y-1.2374
N5915 X1.1838 Y-1.2433
N5920 X1.1763 Y-1.2568
N5925 X1.1716 Y-1.2715
N5930 X1.1696 Y-1.2867
N5935 X1.1706 Y-1.3021
N5940 X1.1744 Y-1.317
N5945 X1.181 Y-1.331
N5950 X1.1901 Y-1.3434
N5955 G3 X1.3167 Y-1.3168 I0.0551 J0.0523
N5960 X1.1885 Y-1.2374 I-0.0725 J0.0262
N5965 G1 X1.1817 Y-1.245
N5970 X1.1684 Y-1.26
N5975 X1.1682 Y-1.2604
N5980 X1.1638 Y-1.2677
N5985 X1.161 Y-1.275
N5990 X1.1594 Y-1.2825
N5995 X1.1588 Y-1.29
N6000 X1.1594 Y-1.2975
N6005 X1.1611 Y-1.305
N6010 X1.1639 Y-1.3121
N6015 X1.1682 Y-1.3191
N6020 X1.1688 Y-1.32
N6025 X1.1831 Y-1.3355
N6030 X1.1959 Y-1.35
N6035 X1.1981 Y-1.3527
N6040 X1.2078 Y-1.365
N6045 X1.229 Y-1.395
N6050 X1.2379 Y-1.41
N6055 X1.2431 Y-1.4191
N6060 X1.246 Y-1.425
N6065 X1.2532 Y-1.44
N6070 X1.2669 Y-1.47
N6075 X1.273 Y-1.4851
N6080 X1.279 Y-1.5
N6085 X1.2852 Y-1.5149
N6090 X1.303 Y-1.5536
N6095 X1.3066 Y-1.5599
N6100 X1.3245 Y-1.5899
N6105 X1.333 Y-1.6026
N6110 X1.3629 Y-1.6423
N6115 X1.3691 Y-1.6499
N6120 X1.3779 Y-1.6594
N6125 X1.3977 Y-1.6799
N6130 X1.4079 Y-1.6904
N6135 X1.4125 Y-1.6949
N6140 X1.4229 Y-1.704
N6145 X1.4529 Y-1.7292
N6150 X1.4678 Y-1.7402
N6155 X1.4978 Y-1.7605
N6160 X1.5128 Y-1.7694
N6165 X1.5278 Y-1.7777
N6170 X1.5428 Y-1.7856
N6175 X1.5577 Y-1.7922
N6180 X1.5877 Y-1.804
N6185 X1.6027 Y-1.8102
N6190 X1.6177 Y-1.8165
N6195 X1.6327 Y-1.8235
N6200 X1.6626 Y-1.8388
N6205 X1.6736 Y-1.8449
N6210 X1.6926 Y-1.8557
N6215 X1.6989 Y-1.8599
N6220 X1.7076 Y-1.8669
N6225 X1.7355 Y-1.8899
N6230 X1.7376 Y-1.8916
N6235 X1.7426 Y-1.8957
N6240 X1.7488 Y-1.9
N6245 X1.7556 Y-1.9039
N6250 X1.768 Y-1.9086
N6255 X1.7812 Y-1.9111
N6260 X1.7945 Y-1.9113
N6265 X1.8077 Y-1.9093
N6270 X1.8203 Y-1.905
N6275 X1.832 Y-1.8985
N6280 X1.8424 Y-1.8902
N6285 G3 X1.8121 Y-1.7592 I-0.0493 J0.0576
N6290 X1.7376 Y-1.8916 I-0.0197 J-0.0761
N6295 G1 X1.7525 Y-1.9052
N6300 X1.76 Y-1.9115
N6305 X1.7675 Y-1.9161
N6310 X1.7726 Y-1.9183
N6315 X1.7777 Y-1.9199
N6320 X1.7825 Y-1.9208
N6325 X1.79 Y-1.9213
N6330 X1.7975 Y-1.9208
N6335 X1.802 Y-1.9199
N6340 X1.8072 Y-1.9182
N6345 X1.8125 Y-1.9159
N6350 X1.8198 Y-1.9114
N6355 X1.8271 Y-1.9049
N6360 X1.8424 Y-1.8902
N6365 X1.8724 Y-1.867
N6370 X1.8818 Y-1.8599
N6375 X1.8874 Y-1.8559
N6380 X1.9053 Y-1.8449
N6385 X1.9174 Y-1.8379
N6390 X1.9473 Y-1.8233
N6395 X1.9623 Y-1.8165
N6400 X1.9773 Y-1.8102
N6405 X1.9923 Y-1.804
N6410 X2.0223 Y-1.7922
N6415 X2.0372 Y-1.7856
N6420 X2.0522 Y-1.7777
N6425 X2.0672 Y-1.7694
N6430 X2.0822 Y-1.7605
N6435 X2.1125 Y-1.7399
N6440 X2.1271 Y-1.7292
N6445 X2.1571 Y-1.704
N6450 X2.1675 Y-1.6949
N6455 X2.1721 Y-1.6904
N6460 X2.1823 Y-1.6799
N6465 X2.2021 Y-1.6594
N6470 X2.2109 Y-1.6499
N6475 X2.2171 Y-1.6423
N6480 X2.247 Y-1.6026
N6485 X2.2555 Y-1.5899
N6490 X2.2734 Y-1.5599
N6495 X2.277 Y-1.5536
N6500 X2.2948 Y-1.5149
N6505 X2.301 Y-1.5
N6510 X2.307 Y-1.485
N6515 X2.3131 Y-1.47
N6520 X2.3275 Y-1.44
N6525 X2.335 Y-1.425
N6530 X2.3369 Y-1.4212
N6535 X2.3429 Y-1.41
N6540 X2.3512 Y-1.395
N6545 X2.3719 Y-1.365
N6550 X2.3819 Y-1.3534
N6555 X2.3915 Y-1.3426
N6560 X2.3962 Y-1.3367
N6565 X2.4037 Y-1.3232
N6570 X2.4084 Y-1.3085
N6575 X2.4104 Y-1.2933
N6580 X2.4094 Y-1.2779
N6585 X2.4056 Y-1.263
N6590 X2.399 Y-1.249
N6595 X2.3899 Y-1.2366
N6600 G3 X2.2633 Y-1.2632 I-0.0551 J-0.0523
N6605 X2.3915 Y-1.3426 I0.0725 J-0.0262
N6610 G1 X2.3983 Y-1.335
N6615 X2.4116 Y-1.32
N6620 X2.4118 Y-1.3196
N6625 X2.4162 Y-1.3123
N6630 X2.419 Y-1.305
N6635 X2.4206 Y-1.2975
N6640 X2.4212 Y-1.29
N6645 X2.4206 Y-1.2825
N6650 X2.4189 Y-1.275
N6655 X2.4161 Y-1.2679
N6660 X2.4118 Y-1.2609
N6665 X2.4112 Y-1.26
N6670 X2.3969 Y-1.2445
N6675 X2.3841 Y-1.23
N6680 X2.3819 Y-1.2273
N6685 X2.3722 Y-1.215
N6690 X2.351 Y-1.185
N6695 X2.3421 Y-1.17
N6700 X2.3369 Y-1.1609
N6705 X2.334 Y-1.155
N6710 X2.3268 Y-1.14
N6715 X2.3131 Y-1.11
N6720 X2.307 Y-1.0949
N6725 X2.301 Y-1.08
N6730 X2.2948 Y-1.0651
N6735 X2.277 Y-1.0264
N6740 X2.2734 Y-1.0201
N6745 X2.2555 Y-0.9901
N6750 X2.247 Y-0.9774
N6755 X2.2171 Y-0.9377
N6760 X2.2109 Y-0.9301
N6765 X2.2021 Y-0.9206
N6770 X2.1823 Y-0.9001
N6775 X2.1721 Y-0.8896
N6780 X2.1675 Y-0.8851
N6785 X2.1571 Y-0.876
N6790 X2.1271 Y-0.8508
N6795 X2.1122 Y-0.8398
N6800 X2.0822 Y-0.8195
N6805 X2.0672 Y-0.8106
N6810 X2.0522 Y-0.8023
N6815 X2.0372 Y-0.7944
N6820 X2.0223 Y-0.7878
N6825 X1.9923 Y-0.776
N6830 X1.9773 Y-0.7698
N6835 X1.9623 Y-0.7635
N6840 X1.9473 Y-0.7565
N6845 X1.9423 Y-0.7539
N6850 X1.9382 Y-0.7526 Z-0.3542
N6855 X1.9342 Y-0.7513 Z-0.3533
N6860 X1.9304 Y-0.7501 Z-0.3518
N6865 X1.927 Y-0.7498 Z-0.3501
N6870 X1.9239 Y-0.7495 Z-0.348
N6875 X1.9211 Y-0.7492 Z-0.3455
N6880 X1.9184 Y-0.7495 Z-0.3424
N6885 X1.9162 Y-0.7497 Z-0.3391
N6890 X1.9144 Y-0.7498 Z-0.3354
N6895 X1.9131 Y-0.7499 Z-0.3316
N6900 X1.9123 Y-0.75 Z-0.3276
N6905 X1.9121 Z-0.3236
N6910 G0 Z-0.2151
N6915 G1 X1.9854 Y-1.1566 F500.
N6920 Z-0.2651 F22.8
N6925 X1.9857 Z-0.2707
N6930 X1.9866 Y-1.1564 Z-0.2763
N6935 X1.9882 Y-1.1563 Z-0.2816
N6940 X1.9903 Y-1.156 Z-0.2868
N6945 X1.993 Y-1.1556 Z-0.2917
N6950 X1.9962 Y-1.1552 Z-0.2963
N6955 X1.9999 Y-1.1547 Z-0.3005
N6960 X2.0041 Y-1.1542 Z-0.3042
N6965 X2.0086 Y-1.1536 Z-0.3075
N6970 X2.0135 Y-1.153 Z-0.3102
N6975 X2.0186 Y-1.1523 Z-0.3123
N6980 X2.024 Y-1.1516 Z-0.3139
N6985 X2.0294 Y-1.1509 Z-0.3148
N6990 X2.035 Y-1.1502 Z-0.3151
N6995 G3 X2.3023 Y-1.0858 I-0.1637 J1.266
N7000 G1 X2.3079 Y-1.0835
N7005 X2.3123 Y-1.0795
N7010 X2.3163 Y-1.075
N7015 X2.3237 Y-1.0629
N7020 X2.3286 Y-1.0496
N7025 X2.331 Y-1.0356
N7030 X2.3308 Y-1.0215
N7035 X2.3279 Y-1.0076
N7040 X2.3225 Y-0.9945
N7045 X2.3201 Y-0.9901
N7050 X2.3113 Y-0.9751
N7055 X2.3016 Y-0.9601
N7060 X2.2918 Y-0.9451
N7065 X2.2809 Y-0.9301
N7070 X2.2575 Y-0.9001
N7075 X2.247 Y-0.8875
N7080 X2.216 Y-0.8551
N7085 X2.2021 Y-0.8415
N7090 X2.1871 Y-0.8284
N7095 X2.1833 Y-0.8251
N7100 X2.165 Y-0.8101
N7105 X2.1571 Y-0.8042
N7110 X2.1226 Y-0.7801
N7115 X2.1122 Y-0.7732
N7120 X2.0994 Y-0.7651
N7125 X2.0972 Y-0.7637
N7130 X2.0822 Y-0.7558
N7135 X2.0712 Y-0.7501
N7140 X2.0372 Y-0.7347
N7145 X2.0223 Y-0.7284
N7150 X2.0073 Y-0.7226
N7155 X2.0011 Y-0.7201
N7160 X1.9923 Y-0.7162
N7165 X1.9623 Y-0.7012
N7170 X1.9473 Y-0.6931
N7175 X1.9324 Y-0.6844
N7180 X1.9174 Y-0.6754
N7185 X1.8874 Y-0.6531
N7190 X1.878 Y-0.6451
N7195 X1.8724 Y-0.6397
N7200 X1.8627 Y-0.6302
N7205 X1.8574 Y-0.6244
N7210 X1.8522 Y-0.6193
N7215 X1.846 Y-0.6141
N7220 X1.8317 Y-0.6057
N7225 X1.8162 Y-0.6
N7230 X1.7999 Y-0.5971
N7235 X1.7834 Y-0.597
N7240 X1.7671 Y-0.5998
N7245 X1.7515 Y-0.6054
N7250 X1.7372 Y-0.6136
N7255 X1.7245 Y-0.6242
N7260 G3 X1.7422 Y-0.7589 I0.064 J-0.0601
N7265 X1.8574 Y-0.6244 I0.0472 J0.0762
N7270 G1 X1.8424 Y-0.6082
N7275 X1.8275 Y-0.592
N7280 X1.8236 Y-0.5882
N7285 X1.8198 Y-0.5852
N7290 X1.8125 Y-0.5808
N7295 X1.805 Y-0.5778
N7300 X1.7975 Y-0.5762
N7305 X1.79 Y-0.5757
N7310 X1.7825 Y-0.5763
N7315 X1.775 Y-0.5781
N7320 X1.7675 Y-0.5811
N7325 X1.7608 Y-0.5852
N7330 X1.7567 Y-0.5884
N7335 X1.7525 Y-0.5925
N7340 X1.7464 Y-0.6002
N7345 X1.7376 Y-0.6106
N7350 X1.7335 Y-0.6152
N7355 X1.7184 Y-0.6302
N7360 X1.7076 Y-0.64
N7365 X1.7018 Y-0.6451
N7370 X1.6926 Y-0.6527
N7375 X1.6626 Y-0.6759
N7380 X1.6476 Y-0.6855
N7385 X1.6327 Y-0.6938
N7390 X1.6177 Y-0.7016
N7395 X1.5877 Y-0.7162
N7400 X1.5789 Y-0.7201
N7405 X1.5727 Y-0.7226
N7410 X1.5577 Y-0.7284
N7415 X1.5428 Y-0.7347
N7420 X1.5088 Y-0.7501
N7425 X1.4978 Y-0.7558
N7430 X1.4828 Y-0.7637
N7435 X1.4806 Y-0.7651
N7440 X1.4678 Y-0.7732
N7445 X1.4574 Y-0.7801
N7450 X1.4229 Y-0.8042
N7455 X1.415 Y-0.8101
N7460 X1.3967 Y-0.8251
N7465 X1.3929 Y-0.8284
N7470 X1.3779 Y-0.8415
N7475 X1.364 Y-0.8551
N7480 X1.333 Y-0.8875
N7485 X1.3225 Y-0.9001
N7490 X1.2991 Y-0.9301
N7495 X1.288 Y-0.9453
N7500 X1.273 Y-0.9684
N7505 X1.2687 Y-0.9751
N7510 X1.2599 Y-0.9901
N7515 X1.2431 Y-1.0218
N7520 X1.2371 Y-1.0351
N7525 X1.2257 Y-1.0651
N7530 X1.2193 Y-1.08
N7535 X1.2125 Y-1.095
N7540 X1.2056 Y-1.11
N7545 X1.1973 Y-1.125
N7550 X1.1888 Y-1.14
N7555 X1.1831 Y-1.1494
N7560 X1.1682 Y-1.1733
N7565 X1.1596 Y-1.185
N7570 X1.1532 Y-1.193
N7575 X1.147 Y-1.2
N7580 X1.1382 Y-1.2093
N7585 X1.1326 Y-1.215
N7590 X1.1232 Y-1.2237
N7595 X1.119 Y-1.228
N7600 X1.1139 Y-1.2341
N7605 X1.1091 Y-1.241
N7610 X1.1049 Y-1.2481
N7615 X1.099 Y-1.2635
N7620 X1.096 Y-1.2797
N7625 X1.0959 Y-1.2961
N7630 X1.0987 Y-1.3123
N7635 X1.1043 Y-1.3278
N7640 X1.1126 Y-1.342
N7645 X1.1232 Y-1.3546
N7650 G3 X1.2566 Y-1.3364 I0.0594 J0.0626
N7655 X1.1232 Y-1.2237 I-0.0758 J0.0456
N7660 G1 X1.1082 Y-1.2375
N7665 X1.0932 Y-1.2515
N7670 X1.0889 Y-1.2557
N7675 X1.0854 Y-1.26
N7680 X1.0812 Y-1.267
N7685 X1.0782 Y-1.2739
N7690 X1.0779 Y-1.275
N7695 X1.0762 Y-1.2825
N7700 X1.0756 Y-1.29
N7705 X1.0762 Y-1.2975
N7710 X1.0779 Y-1.305
N7715 X1.0782 Y-1.3061
N7720 X1.0812 Y-1.313
N7725 X1.0856 Y-1.32
N7730 X1.089 Y-1.3241
N7735 X1.0932 Y-1.3281
N7740 X1.1082 Y-1.3406
N7745 X1.1185 Y-1.35
N7750 X1.1241 Y-1.3555
N7755 X1.1334 Y-1.365
N7760 X1.1467 Y-1.38
N7765 X1.1532 Y-1.3877
N7770 X1.1591 Y-1.395
N7775 X1.1682 Y-1.4066
N7780 X1.1831 Y-1.4292
N7785 X1.1899 Y-1.44
N7790 X1.1981 Y-1.4552
N7795 X1.2059 Y-1.47
N7800 X1.2131 Y-1.4859
N7805 X1.2193 Y-1.5
N7810 X1.2257 Y-1.5149
N7815 X1.2371 Y-1.5449
N7820 X1.2431 Y-1.5582
N7825 X1.2599 Y-1.5899
N7830 X1.2687 Y-1.6049
N7835 X1.2784 Y-1.6199
N7840 X1.2882 Y-1.6349
N7845 X1.2991 Y-1.6499
N7850 X1.3225 Y-1.6799
N7855 X1.333 Y-1.6925
N7860 X1.364 Y-1.7249
N7865 X1.3779 Y-1.7385
N7870 X1.3929 Y-1.7516
N7875 X1.3967 Y-1.7549
N7880 X1.415 Y-1.7699
N7885 X1.4229 Y-1.7758
N7890 X1.4574 Y-1.7999
N7895 X1.4678 Y-1.8068
N7900 X1.4806 Y-1.8149
N7905 X1.4828 Y-1.8163
N7910 X1.4978 Y-1.8242
N7915 X1.5088 Y-1.8299
N7920 X1.5428 Y-1.8453
N7925 X1.5577 Y-1.8516
N7930 X1.5727 Y-1.8574
N7935 X1.5789 Y-1.8599
N7940 X1.5877 Y-1.8638
N7945 X1.6177 Y-1.8788
N7950 X1.6327 Y-1.8869
N7955 X1.6476 Y-1.8956
N7960 X1.6626 Y-1.9046
N7965 X1.6926 Y-1.9269
N7970 X1.702 Y-1.9349
N7975 X1.7076 Y-1.9403
N7980 X1.7173 Y-1.9498
N7985 X1.7226 Y-1.9556
N7990 X1.7278 Y-1.9607
N7995 X1.734 Y-1.9659
N8000 X1.7483 Y-1.9743
N8005 X1.7638 Y-1.98
N8010 X1.7801 Y-1.9829
N8015 X1.7966 Y-1.983
N8020 X1.8129 Y-1.9802
N8025 X1.8285 Y-1.9746
N8030 X1.8428 Y-1.9664
N8035 X1.8555 Y-1.9558
N8040 G3 X1.8378 Y-1.8211 I-0.064 J0.0601
N8045 X1.7226 Y-1.9556 I-0.0472 J-0.0762
N8050 G1 X1.7376 Y-1.9718
N8055 X1.7525 Y-1.988
N8060 X1.7564 Y-1.9918
N8065 X1.7602 Y-1.9948
N8070 X1.7675 Y-1.9992
N8075 X1.775 Y-2.0022
N8080 X1.7825 Y-2.0038
N8085 X1.79 Y-2.0043
N8090 X1.7975 Y-2.0037
N8095 X1.805 Y-2.0019
N8100 X1.8125 Y-1.9989
N8105 X1.8192 Y-1.9948
N8110 X1.8233 Y-1.9916
N8115 X1.8275 Y-1.9875
N8120 X1.8336 Y-1.9798
N8125 X1.8424 Y-1.9694
N8130 X1.8465 Y-1.9648
N8135 X1.8616 Y-1.9498
N8140 X1.8724 Y-1.94
N8145 X1.8782 Y-1.9349
N8150 X1.8874 Y-1.9273
N8155 X1.9174 Y-1.9041
N8160 X1.9324 Y-1.8945
N8165 X1.9473 Y-1.8862
N8170 X1.9623 Y-1.8784
N8175 X1.9923 Y-1.8638
N8180 X2.0011 Y-1.8599
N8185 X2.0073 Y-1.8574
N8190 X2.0223 Y-1.8516
N8195 X2.0372 Y-1.8453
N8200 X2.0712 Y-1.8299
N8205 X2.0822 Y-1.8242
N8210 X2.0972 Y-1.8163
N8215 X2.0994 Y-1.8149
N8220 X2.1122 Y-1.8068
N8225 X2.1226 Y-1.7999
N8230 X2.1571 Y-1.7758
N8235 X2.165 Y-1.7699
N8240 X2.1833 Y-1.7549
N8245 X2.1871 Y-1.7516
N8250 X2.2021 Y-1.7385
N8255 X2.216 Y-1.7249
N8260 X2.247 Y-1.6925
N8265 X2.2575 Y-1.6799
N8270 X2.2809 Y-1.6499
N8275 X2.292 Y-1.6347
N8280 X2.307 Y-1.6116
N8285 X2.3113 Y-1.6049
N8290 X2.3201 Y-1.5899
N8295 X2.3369 Y-1.5582
N8300 X2.3429 Y-1.5449
N8305 X2.3543 Y-1.5149
N8310 X2.3607 Y-1.5
N8315 X2.3675 Y-1.485
N8320 X2.3744 Y-1.47
N8325 X2.3827 Y-1.455
N8330 X2.3912 Y-1.44
N8335 X2.3969 Y-1.4306
N8340 X2.4118 Y-1.4067
N8345 X2.4204 Y-1.395
N8350 X2.4268 Y-1.387
N8355 X2.433 Y-1.38
N8360 X2.4418 Y-1.3707
N8365 X2.4474 Y-1.365
N8370 X2.4568 Y-1.3563
N8375 X2.461 Y-1.352
N8380 X2.4661 Y-1.3459
N8385 X2.4709 Y-1.339
N8390 X2.4751 Y-1.3319
N8395 X2.481 Y-1.3165
N8400 X2.484 Y-1.3003
N8405 X2.4841 Y-1.2839
N8410 X2.4813 Y-1.2677
N8415 X2.4757 Y-1.2522
N8420 X2.4674 Y-1.238
N8425 X2.4568 Y-1.2254
N8430 G3 X2.3234 Y-1.2436 I-0.0594 J-0.0626
N8435 X2.4568 Y-1.3563 I0.0758 J-0.0456
N8440 G1 X2.4718 Y-1.3425
N8445 X2.4868 Y-1.3285
N8450 X2.4911 Y-1.3243
N8455 X2.4946 Y-1.32
N8460 X2.4988 Y-1.313
N8465 X2.5018 Y-1.3061
N8470 X2.5021 Y-1.305
N8475 X2.5038 Y-1.2975
N8480 X2.5044 Y-1.29
N8485 X2.5038 Y-1.2825
N8490 X2.5021 Y-1.275
N8495 X2.5018 Y-1.2739
N8500 X2.4988 Y-1.267
N8505 X2.4944 Y-1.26
N8510 X2.491 Y-1.2559
N8515 X2.4868 Y-1.2519
N8520 X2.4718 Y-1.2394
N8525 X2.4615 Y-1.23
N8530 X2.4559 Y-1.2245
N8535 X2.4466 Y-1.215
N8540 X2.4333 Y-1.2
N8545 X2.4268 Y-1.1923
N8550 X2.4209 Y-1.185
N8555 X2.4118 Y-1.1734
N8560 X2.3969 Y-1.1508
N8565 X2.3901 Y-1.14
N8570 X2.3819 Y-1.1248
N8575 X2.3741 Y-1.11
N8580 X2.3669 Y-1.0941
N8585 X2.3607 Y-1.08
N8590 X2.3543 Y-1.0651
N8595 X2.3429 Y-1.0351
N8600 X2.3369 Y-1.0218
N8605 X2.3225 Y-0.9945
N8610 X2.3199 Y-0.9911 Z-0.3148
N8615 X2.3174 Y-0.9877 Z-0.3139
N8620 X2.3149 Y-0.9845 Z-0.3125
N8625 X2.3121 Y-0.9823 Z-0.3106
N8630 X2.3095 Y-0.9802 Z-0.3082
N8635 X2.3072 Y-0.9784 Z-0.3055
N8640 X2.3052 Y-0.9767 Z-0.3023
N8645 X2.3034 Y-0.9758 Z-0.2991
N8650 X2.3019 Y-0.975 Z-0.2956
N8655 X2.3009 Y-0.9744 Z-0.2919
N8660 X2.3002 Y-0.9741 Z-0.2881
N8665 X2.3 Y-0.974 Z-0.2842
N8670 G0 Z-0.1758
N8675 G1 X1.628 Y-1.048 F500.
N8680 Z-0.2258 F22.8
N8685 X1.6279 Y-1.0477 Z-0.2314
N8690 X1.6278 Y-1.0467 Z-0.2369
N8695 X1.6275 Y-1.0452 Z-0.2423
N8700 X1.6272 Y-1.0431 Z-0.2475
N8705 X1.6267 Y-1.0404 Z-0.2524
N8710 X1.6262 Y-1.0372 Z-0.2569
N8715 X1.6256 Y-1.0335 Z-0.2611
N8720 X1.625 Y-1.0294 Z-0.2649
N8725 X1.6242 Y-1.0249 Z-0.2681
N8730 X1.6234 Y-1.02 Z-0.2708
N8735 X1.6226 Y-1.0149 Z-0.273
N8740 X1.6217 Y-1.0096 Z-0.2745
N8745 X1.6209 Y-1.0041 Z-0.2754
N8750 X1.62 Y-0.9986 Z-0.2758
N8755 G3 X1.5469 Y-0.7335 I-1.26 J-0.2046
N8760 G1 X1.5445 Y-0.728
N8765 X1.5403 Y-0.7237
N8770 X1.5357 Y-0.7198
N8775 X1.5308 Y-0.7164
N8780 X1.5257 Y-0.7133
N8785 X1.5203 Y-0.7106
N8790 X1.5148 Y-0.7081
N8795 X1.5142 Y-0.7079
N8800 X1.4986 Y-0.703
N8805 X1.4824 Y-0.7004
N8810 X1.4659 Y-0.7001
N8815 X1.4497 Y-0.7021
N8820 X1.4338 Y-0.7063
N8825 X1.4187 Y-0.7128
N8830 X1.4046 Y-0.7213
N8835 X1.3929 Y-0.7295
N8840 X1.3779 Y-0.7403
N8845 X1.3469 Y-0.7651
N8850 X1.333 Y-0.7772
N8855 X1.298 Y-0.8101
N8860 X1.288 Y-0.8208
N8865 X1.2573 Y-0.8551
N8870 X1.2459 Y-0.8701
N8875 X1.2281 Y-0.8948
N8880 X1.2243 Y-0.9001
N8885 X1.2131 Y-0.917
N8890 X1.2045 Y-0.9301
N8895 X1.1981 Y-0.9412
N8900 X1.196 Y-0.9451
N8905 X1.18 Y-0.9751
N8910 X1.1723 Y-0.9901
N8915 X1.1594 Y-1.0201
N8920 X1.1397 Y-1.0651
N8925 X1.1382 Y-1.0683
N8930 X1.1232 Y-1.0965
N8935 X1.1144 Y-1.11
N8940 X1.094 Y-1.14
N8945 X1.0822 Y-1.155
N8950 X1.0703 Y-1.17
N8955 X1.0633 Y-1.1786
N8960 X1.0573 Y-1.185
N8965 X1.0483 Y-1.1942
N8970 X1.0418 Y-1.2
N8975 X1.032 Y-1.2098
N8980 X1.0256 Y-1.2172
N8985 X1.02 Y-1.2249
N8990 X1.0149 Y-1.2334
N8995 X1.0106 Y-1.242
N9000 X1.0068 Y-1.2513
N9005 X1.0039 Y-1.2606
N9010 X1.0017 Y-1.2702
N9015 X1.0002 Y-1.2801
N9020 X1. Y-1.2828
N9025 X1.0002 Y-1.3005
N9030 X1.0031 Y-1.3179
N9035 X1.0086 Y-1.3347
N9040 X1.0165 Y-1.3504
N9045 X1.0267 Y-1.3648
N9050 X1.0389 Y-1.3775
N9055 G3 X1.1208 Y-1.3405 I0.0319 J0.0385
N9060 G1 X1.1239 Y-1.2399
N9065 G3 X1.0418 Y-1.2 I-0.05 J0.0015
N9070 G1 X1.0333 Y-1.2077
N9075 X1.0244 Y-1.215
N9080 X1.0183 Y-1.2196
N9085 X1.0028 Y-1.23
N9090 X0.9883 Y-1.2401
N9095 X0.9816 Y-1.245
N9100 X0.9734 Y-1.2511
N9105 X0.9685 Y-1.2556
N9110 X0.9648 Y-1.26
N9115 X0.9611 Y-1.2657
N9120 X0.9584 Y-1.2714
N9125 X0.9571 Y-1.275
N9130 X0.9553 Y-1.2825
N9135 X0.9548 Y-1.29
N9140 X0.9553 Y-1.2975
N9145 X0.9571 Y-1.305
N9150 X0.9584 Y-1.3086
N9155 X0.9611 Y-1.3143
N9160 X0.9648 Y-1.32
N9165 X0.9685 Y-1.3244
N9170 X0.9734 Y-1.3289
N9175 X0.9812 Y-1.335
N9180 X0.9883 Y-1.3399
N9185 X1.0033 Y-1.3498
N9190 X1.0183 Y-1.3606
N9195 X1.0241 Y-1.365
N9200 X1.0333 Y-1.3725
N9205 X1.0483 Y-1.3858
N9210 X1.0574 Y-1.395
N9215 X1.0633 Y-1.4012
N9220 X1.0706 Y-1.41
N9225 X1.0946 Y-1.44
N9230 X1.1082 Y-1.4594
N9235 X1.1155 Y-1.47
N9240 X1.1232 Y-1.4819
N9245 X1.1382 Y-1.5115
N9250 X1.1397 Y-1.5149
N9255 X1.1594 Y-1.5599
N9260 X1.1723 Y-1.5899
N9265 X1.18 Y-1.6049
N9270 X1.196 Y-1.6349
N9275 X1.1981 Y-1.6388
N9280 X1.2045 Y-1.6499
N9285 X1.2144 Y-1.6649
N9290 X1.2243 Y-1.6799
N9295 X1.2281 Y-1.6853
N9300 X1.2459 Y-1.7099
N9305 X1.2573 Y-1.7249
N9310 X1.288 Y-1.7592
N9315 X1.298 Y-1.7699
N9320 X1.333 Y-1.8028
N9325 X1.3469 Y-1.8149
N9330 X1.3779 Y-1.8398
N9335 X1.3929 Y-1.8506
N9340 X1.4079 Y-1.8611
N9345 X1.4229 Y-1.8714
N9350 X1.4678 Y-1.897
N9355 X1.4828 Y-1.904
N9360 X1.4978 Y-1.9107
N9365 X1.5128 Y-1.9174
N9370 X1.5577 Y-1.937
N9375 X1.5727 Y-1.9441
N9380 X1.5843 Y-1.9498
N9385 X1.5877 Y-1.9518
N9390 X1.6177 Y-1.97
N9395 X1.6317 Y-1.9798
N9400 X1.6512 Y-1.9948
N9405 X1.6626 Y-2.0037
N9410 X1.6704 Y-2.0098
N9415 X1.6776 Y-2.0162
N9420 X1.6926 Y-2.03
N9425 X1.7018 Y-2.0398
N9430 X1.7097 Y-2.0478
N9435 X1.7171 Y-2.0541
N9440 X1.7249 Y-2.0598
N9445 X1.7333 Y-2.0649
N9450 X1.742 Y-2.0693
N9455 X1.7512 Y-2.073
N9460 X1.7606 Y-2.076
N9465 X1.7702 Y-2.0782
N9470 X1.7801 Y-2.0796
N9475 X1.7826 Y-2.0798
N9480 X1.8002 Y-2.0796
N9485 X1.8176 Y-2.0768
N9490 X1.8344 Y-2.0713
N9495 X1.8502 Y-2.0634
N9500 X1.8646 Y-2.0532
N9505 X1.8773 Y-2.041
N9510 G3 X1.8395 Y-1.959 I-0.0385 J0.0319
N9515 G1 X1.7408 Y-1.9577
N9520 G3 X1.7018 Y-2.0398 I-0.0007 J-0.05
N9525 G1 X1.7076 Y-2.0463
N9530 X1.7249 Y-2.0698
N9535 X1.7351 Y-2.0848
N9540 X1.746 Y-2.0998
N9545 X1.7525 Y-2.1083
N9550 X1.7561 Y-2.1119
N9555 X1.7598 Y-2.1148
N9560 X1.7636 Y-2.1174
N9565 X1.7675 Y-2.1195
N9570 X1.775 Y-2.1225
N9575 X1.7825 Y-2.1243
N9580 X1.79 Y-2.1249
N9585 X1.7975 Y-2.1244
N9590 X1.805 Y-2.1227
N9595 X1.8125 Y-2.1197
N9600 X1.8164 Y-2.1175
N9605 X1.8204 Y-2.1148
N9610 X1.8239 Y-2.1119
N9615 X1.8275 Y-2.1083
N9620 X1.8342 Y-2.0998
N9625 X1.8424 Y-2.0876
N9630 X1.8442 Y-2.0848
N9635 X1.8547 Y-2.0698
N9640 X1.8724 Y-2.0464
N9645 X1.8783 Y-2.0398
N9650 X1.8874 Y-2.0299
N9655 X1.9024 Y-2.0159
N9660 X1.9093 Y-2.0098
N9665 X1.9473 Y-1.9798
N9670 X1.9623 Y-1.9691
N9675 X1.9923 Y-1.9515
N9680 X1.9953 Y-1.9498
N9685 X2.0073 Y-1.944
N9690 X2.0223 Y-1.937
N9695 X2.0672 Y-1.9173
N9700 X2.0822 Y-1.9107
N9705 X2.0972 Y-1.9039
N9710 X2.1122 Y-1.8969
N9715 X2.1571 Y-1.8713
N9720 X2.1738 Y-1.8599
N9725 X2.1871 Y-1.8505
N9730 X2.2021 Y-1.8397
N9735 X2.2331 Y-1.8149
N9740 X2.247 Y-1.8028
N9745 X2.282 Y-1.7699
N9750 X2.292 Y-1.7592
N9755 X2.3227 Y-1.7249
N9760 X2.3341 Y-1.7099
N9765 X2.3519 Y-1.6852
N9770 X2.3557 Y-1.6799
N9775 X2.3669 Y-1.663
N9780 X2.3755 Y-1.6499
N9785 X2.3819 Y-1.6388
N9790 X2.384 Y-1.6349
N9795 X2.4 Y-1.6049
N9800 X2.4077 Y-1.5899
N9805 X2.4206 Y-1.5599
N9810 X2.4403 Y-1.5149
N9815 X2.4418 Y-1.5117
N9820 X2.4568 Y-1.4835
N9825 X2.4656 Y-1.47
N9830 X2.486 Y-1.44
N9835 X2.4978 Y-1.425
N9840 X2.5097 Y-1.41
N9845 X2.5167 Y-1.4014
N9850 X2.5227 Y-1.395
N9855 X2.5317 Y-1.3858
N9860 X2.5382 Y-1.38
N9865 X2.548 Y-1.3702
N9870 X2.5544 Y-1.3628
N9875 X2.56 Y-1.3551
N9880 X2.5651 Y-1.3466
N9885 X2.5694 Y-1.338
N9890 X2.5732 Y-1.3287
N9895 X2.5761 Y-1.3194
N9900 X2.5783 Y-1.3098
N9905 X2.5798 Y-1.2999
N9910 X2.58 Y-1.2972
N9915 X2.5798 Y-1.2795
N9920 X2.5769 Y-1.2621
N9925 X2.5714 Y-1.2453
N9930 X2.5635 Y-1.2296
N9935 X2.5533 Y-1.2152
N9940 X2.5411 Y-1.2025
N9945 G3 X2.4592 Y-1.2395 I-0.0319 J-0.0385
N9950 G1 X2.4561 Y-1.3401
N9955 G3 X2.5382 Y-1.38 I0.05 J-0.0015
N9960 G1 X2.5467 Y-1.3723
N9965 X2.5556 Y-1.365
N9970 X2.5617 Y-1.3604
N9975 X2.5772 Y-1.35
N9980 X2.5917 Y-1.3399
N9985 X2.5984 Y-1.335
N9990 X2.6066 Y-1.3289
N9995 X2.6115 Y-1.3245
N10000 X2.6153 Y-1.32
N10005 X2.6189 Y-1.3143
N10010 X2.6216 Y-1.3087
N10015 X2.623 Y-1.305
N10020 X2.6247 Y-1.2975
N10025 X2.6253 Y-1.29
N10030 X2.6247 Y-1.2825
N10035 X2.623 Y-1.275
N10040 X2.6216 Y-1.2712
N10045 X2.619 Y-1.2656
N10050 X2.6154 Y-1.26
N10055 X2.6116 Y-1.2554
N10060 X2.6066 Y-1.2508
N10065 X2.5991 Y-1.245
N10070 X2.5767 Y-1.2302
N10075 X2.5617 Y-1.2194
N10080 X2.5559 Y-1.215
N10085 X2.5467 Y-1.2075
N10090 X2.5317 Y-1.1942
N10095 X2.5226 Y-1.185
N10100 X2.5167 Y-1.1788
N10105 X2.5094 Y-1.17
N10110 X2.4854 Y-1.14
N10115 X2.4718 Y-1.1206
N10120 X2.4645 Y-1.11
N10125 X2.4568 Y-1.0981
N10130 X2.4418 Y-1.0685
N10135 X2.4403 Y-1.0651
N10140 X2.4206 Y-1.0201
N10145 X2.4077 Y-0.9901
N10150 X2.4 Y-0.9751
N10155 X2.384 Y-0.9451
N10160 X2.3819 Y-0.9412
N10165 X2.3755 Y-0.9301
N10170 X2.3656 Y-0.9151
N10175 X2.3557 Y-0.9001
N10180 X2.3519 Y-0.8948
N10185 X2.3341 Y-0.8701
N10190 X2.3227 Y-0.8551
N10195 X2.292 Y-0.8208
N10200 X2.282 Y-0.8101
N10205 X2.247 Y-0.7772
N10210 X2.2332 Y-0.7651
N10215 X2.2021 Y-0.7403
N10220 X2.1871 Y-0.7294
N10225 X2.1721 Y-0.7189
N10230 X2.1571 Y-0.7086
N10235 X2.1122 Y-0.683
N10240 X2.0972 Y-0.676
N10245 X2.0822 Y-0.6693
N10250 X2.0672 Y-0.6626
N10255 X2.0223 Y-0.643
N10260 X2.0073 Y-0.6359
N10265 X1.9957 Y-0.6302
N10270 X1.9923 Y-0.6282
N10275 X1.9623 Y-0.61
N10280 X1.9483 Y-0.6002
N10285 X1.9288 Y-0.5852
N10290 X1.9174 Y-0.5763
N10295 X1.9096 Y-0.5702
N10300 X1.9024 Y-0.5638
N10305 X1.8874 Y-0.55
N10310 X1.8782 Y-0.5402
N10315 X1.8703 Y-0.5322
N10320 X1.8629 Y-0.5259
N10325 X1.8551 Y-0.5202
N10330 X1.8467 Y-0.5151
N10335 X1.838 Y-0.5107
N10340 X1.8288 Y-0.507
N10345 X1.8194 Y-0.504
N10350 X1.8098 Y-0.5018
N10355 X1.7999 Y-0.5004
N10360 X1.7974 Y-0.5002
N10365 X1.7798 Y-0.5004
N10370 X1.7624 Y-0.5032
N10375 X1.7456 Y-0.5087
N10380 X1.7298 Y-0.5166
N10385 X1.7154 Y-0.5268
N10390 X1.7027 Y-0.539
N10395 G3 X1.7405 Y-0.621 I0.0385 J-0.0319
N10400 G1 X1.8392 Y-0.6223
N10405 G3 X1.8782 Y-0.5402 I0.0007 J0.05
N10410 G1 X1.8724 Y-0.5337
N10415 X1.8551 Y-0.5102
N10420 X1.8449 Y-0.4952
N10425 X1.834 Y-0.4802
N10430 X1.8275 Y-0.4717
N10435 X1.8239 Y-0.4681
N10440 X1.8202 Y-0.4652
N10445 X1.8164 Y-0.4626
N10450 X1.8125 Y-0.4605
N10455 X1.805 Y-0.4575
N10460 X1.7975 Y-0.4557
N10465 X1.79 Y-0.4551
N10470 X1.7825 Y-0.4556
N10475 X1.775 Y-0.4573
N10480 X1.7675 Y-0.4603
N10485 X1.7636 Y-0.4625
N10490 X1.7596 Y-0.4652
N10495 X1.7561 Y-0.4681
N10500 X1.7525 Y-0.4717
N10505 X1.7458 Y-0.4802
N10510 X1.7376 Y-0.4924
N10515 X1.7358 Y-0.4952
N10520 X1.7253 Y-0.5102
N10525 X1.7076 Y-0.5336
N10530 X1.7017 Y-0.5402
N10535 X1.6926 Y-0.5501
N10540 X1.6776 Y-0.5641
N10545 X1.6707 Y-0.5702
N10550 X1.6327 Y-0.6002
N10555 X1.6177 Y-0.6109
N10560 X1.5877 Y-0.6285
N10565 X1.5847 Y-0.6302
N10570 X1.5727 Y-0.636
N10575 X1.5577 Y-0.643
N10580 X1.5128 Y-0.6626
N10585 X1.4978 Y-0.6693
N10590 X1.4828 Y-0.6761
N10595 X1.4678 Y-0.683
N10600 X1.4229 Y-0.7087
N10605 X1.4063 Y-0.7201
N10610 X1.4046 Y-0.7213
N10615 X1.4016 Y-0.7243 Z-0.2755
N10620 X1.3986 Y-0.7272 Z-0.2746
N10625 X1.3957 Y-0.73 Z-0.2731
N10630 X1.3938 Y-0.7331 Z-0.2712
N10635 X1.3921 Y-0.7359 Z-0.2689
N10640 X1.3906 Y-0.7385 Z-0.2661
N10645 X1.3892 Y-0.7407 Z-0.263
N10650 X1.3885 Y-0.7426 Z-0.2597
N10655 X1.3879 Y-0.7441 Z-0.2562
N10660 X1.3875 Y-0.7453 Z-0.2525
N10665 X1.3872 Y-0.7459 Z-0.2487
N10670 Y-0.7462 Z-0.2448
N10675 G0 Z-0.1364
N10680 G1 X1.5462 Y-1.0167 F500.
N10685 Z-0.1864 F22.8
N10690 X1.5461 Y-1.0164 Z-0.192
N10695 X1.5458 Y-1.0155 Z-0.1975
N10700 X1.5452 Y-1.014 Z-0.2029
N10705 X1.5445 Y-1.012 Z-0.2081
N10710 X1.5436 Y-1.0094 Z-0.213
N10715 X1.5426 Y-1.0064 Z-0.2176
N10720 X1.5413 Y-1.0028 Z-0.2217
N10725 X1.5399 Y-0.9989 Z-0.2255
N10730 X1.5384 Y-0.9946 Z-0.2287
N10735 X1.5368 Y-0.9899 Z-0.2314
N10740 X1.5351 Y-0.9851 Z-0.2336
N10745 X1.5333 Y-0.98 Z-0.2351
N10750 X1.5315 Y-0.9748 Z-0.2361
N10755 X1.5296 Y-0.9695 Z-0.2364
N10760 G3 X1.4111 Y-0.7213 I-1.2045 J-0.4227
N10765 G1 X1.4078 Y-0.7163
N10770 X1.4032 Y-0.7125
N10775 X1.3981 Y-0.7094
N10780 X1.3927 Y-0.7067
N10785 X1.3871 Y-0.7044
N10790 X1.3815 Y-0.7025
N10795 X1.3654 Y-0.6992
N10800 X1.349 Y-0.6982
N10805 X1.3326 Y-0.6996
N10810 X1.3166 Y-0.7033
N10815 X1.3013 Y-0.7092
N10820 X1.287 Y-0.7173
N10825 X1.274 Y-0.7273
N10830 X1.273 Y-0.7282
N10835 X1.2658 Y-0.7351
N10840 X1.2281 Y-0.7724
N10845 X1.2214 Y-0.7801
N10850 X1.2088 Y-0.7951
N10855 X1.1966 Y-0.8101
N10860 X1.1831 Y-0.827
N10865 X1.1682 Y-0.8458
N10870 X1.1617 Y-0.8551
N10875 X1.1532 Y-0.8682
N10880 X1.1329 Y-0.9001
N10885 X1.1232 Y-0.9168
N10890 X1.1081 Y-0.9451
N10895 X1.0932 Y-0.9766
N10900 X1.087 Y-0.9901
N10905 X1.075 Y-1.0201
N10910 X1.0688 Y-1.0351
N10915 X1.0563 Y-1.0651
N10920 X1.0483 Y-1.0811
N10925 X1.0411 Y-1.095
N10930 X1.0332 Y-1.11
N10935 X1.0165 Y-1.14
N10940 X1.0063 Y-1.155
N10945 X0.995 Y-1.17
N10950 X0.9883 Y-1.1802
N10955 X0.985 Y-1.185
N10960 X0.9734 Y-1.2016
N10965 X0.9635 Y-1.215
N10970 X0.9584 Y-1.2214
N10975 X0.9434 Y-1.2411
N10980 X0.9404 Y-1.245
N10985 X0.9284 Y-1.2636
N10990 X0.9254 Y-1.2693
N10995 X0.9232 Y-1.275
N11000 X0.9215 Y-1.2825
N11005 X0.9209 Y-1.29
N11010 X0.9215 Y-1.2975
N11015 X0.9232 Y-1.305
N11020 X0.9254 Y-1.3107
N11025 X0.9284 Y-1.3164
N11030 X0.9405 Y-1.335
N11035 X0.9434 Y-1.3387
N11040 X0.9584 Y-1.3585
N11045 X0.9635 Y-1.365
N11050 X0.9734 Y-1.3781
N11055 X0.9883 Y-1.3989
N11060 X0.9957 Y-1.41
N11065 X1.0033 Y-1.4209
N11070 X1.0064 Y-1.425
N11075 X1.0166 Y-1.44
N11080 X1.034 Y-1.47
N11085 X1.0422 Y-1.485
N11090 X1.0494 Y-1.5
N11095 X1.0564 Y-1.5149
N11100 X1.0688 Y-1.5449
N11105 X1.0782 Y-1.5681
N11110 X1.0871 Y-1.5899
N11115 X1.094 Y-1.6049
N11120 X1.1081 Y-1.6349
N11125 X1.1232 Y-1.6632
N11130 X1.1329 Y-1.6799
N11135 X1.1532 Y-1.7118
N11140 X1.1617 Y-1.7249
N11145 X1.1682 Y-1.7341
N11150 X1.1846 Y-1.7549
N11155 X1.1966 Y-1.7699
N11160 X1.2088 Y-1.7849
N11165 X1.2213 Y-1.7999
N11170 X1.2281 Y-1.8078
N11175 X1.2658 Y-1.8449
N11180 X1.273 Y-1.8518
N11185 X1.288 Y-1.8652
N11190 X1.2992 Y-1.8749
N11195 X1.3372 Y-1.9049
N11200 X1.348 Y-1.9122
N11205 X1.3779 Y-1.9323
N11210 X1.3818 Y-1.9349
N11215 X1.4229 Y-1.96
N11220 X1.4325 Y-1.9648
N11225 X1.4678 Y-1.9819
N11230 X1.4978 Y-1.996
N11235 X1.5128 Y-2.0027
N11240 X1.5428 Y-2.0141
N11245 X1.5577 Y-2.0202
N11250 X1.5877 Y-2.0351
N11255 X1.6177 Y-2.0505
N11260 X1.626 Y-2.0548
N11265 X1.6327 Y-2.0589
N11270 X1.6626 Y-2.0792
N11275 X1.6776 Y-2.0896
N11280 X1.6926 Y-2.0999
N11285 X1.7076 Y-2.1108
N11290 X1.7226 Y-2.1224
N11295 X1.7376 Y-2.1339
N11300 X1.7525 Y-2.1444
N11305 X1.7675 Y-2.1538
N11310 X1.775 Y-2.1568
N11315 X1.7825 Y-2.1586
N11320 X1.79 Y-2.1591
N11325 X1.7975 Y-2.1586
N11330 X1.805 Y-2.1568
N11335 X1.8125 Y-2.1538
N11340 X1.8275 Y-2.1444
N11345 X1.8424 Y-2.1337
N11350 X1.8574 Y-2.1224
N11355 X1.8673 Y-2.1148
N11360 X1.8724 Y-2.1108
N11365 X1.8874 Y-2.0997
N11370 X1.9024 Y-2.0893
N11375 X1.9174 Y-2.0794
N11380 X1.9324 Y-2.069
N11385 X1.9473 Y-2.0589
N11390 X1.9539 Y-2.0548
N11395 X1.9623 Y-2.0503
N11400 X1.9923 Y-2.0342
N11405 X2.012 Y-2.0248
N11410 X2.0223 Y-2.02
N11415 X2.0372 Y-2.014
N11420 X2.0672 Y-2.0028
N11425 X2.0822 Y-1.9962
N11430 X2.1122 Y-1.9827
N11435 X2.1184 Y-1.9798
N11440 X2.1271 Y-1.9755
N11445 X2.1476 Y-1.9648
N11450 X2.1571 Y-1.9598
N11455 X2.1871 Y-1.9423
N11460 X2.1995 Y-1.9349
N11465 X2.232 Y-1.9128
N11470 X2.2435 Y-1.9049
N11475 X2.262 Y-1.8907
N11480 X2.2816 Y-1.8749
N11485 X2.292 Y-1.866
N11490 X2.307 Y-1.8527
N11495 X2.3154 Y-1.8449
N11500 X2.3219 Y-1.8385
N11505 X2.3307 Y-1.8299
N11510 X2.3519 Y-1.8081
N11515 X2.3591 Y-1.7999
N11520 X2.372 Y-1.7849
N11525 X2.3846 Y-1.7699
N11530 X2.3963 Y-1.7549
N11535 X2.4118 Y-1.7338
N11540 X2.4183 Y-1.7249
N11545 X2.4268 Y-1.712
N11550 X2.4471 Y-1.6799
N11555 X2.4562 Y-1.6649
N11560 X2.4568 Y-1.6639
N11565 X2.4718 Y-1.6349
N11570 X2.4788 Y-1.6199
N11575 X2.4868 Y-1.6028
N11580 X2.4927 Y-1.5899
N11585 X2.4991 Y-1.5749
N11590 X2.5115 Y-1.5449
N11595 X2.5237 Y-1.5149
N11600 X2.5317 Y-1.4989
N11605 X2.5389 Y-1.485
N11610 X2.5468 Y-1.47
N11615 X2.5635 Y-1.44
N11620 X2.5737 Y-1.425
N11625 X2.585 Y-1.41
N11630 X2.5917 Y-1.3998
N11635 X2.595 Y-1.395
N11640 X2.6066 Y-1.3784
N11645 X2.6165 Y-1.365
N11650 X2.6216 Y-1.3586
N11655 X2.6366 Y-1.3389
N11660 X2.6396 Y-1.335
N11665 X2.6516 Y-1.3164
N11670 X2.6546 Y-1.3107
N11675 X2.6568 Y-1.305
N11680 X2.6586 Y-1.2975
N11685 X2.6591 Y-1.29
N11690 X2.6586 Y-1.2825
N11695 X2.6568 Y-1.275
N11700 X2.6546 Y-1.2693
N11705 X2.6516 Y-1.2636
N11710 X2.6396 Y-1.245
N11715 X2.6284 Y-1.23
N11720 X2.6216 Y-1.2208
N11725 X2.6172 Y-1.215
N11730 X2.6062 Y-1.2
N11735 X2.5849 Y-1.17
N11740 X2.5743 Y-1.155
N11745 X2.5643 Y-1.14
N11750 X2.5467 Y-1.109
N11755 X2.5391 Y-1.095
N11760 X2.5312 Y-1.08
N11765 X2.5236 Y-1.0651
N11770 X2.5018 Y-1.0116
N11775 X2.4991 Y-1.0051
N11780 X2.4927 Y-0.9901
N11785 X2.4858 Y-0.9751
N11790 X2.4788 Y-0.9601
N11795 X2.4717 Y-0.9451
N11800 X2.4568 Y-0.9162
N11805 X2.4561 Y-0.9151
N11810 X2.4471 Y-0.9001
N11815 X2.4268 Y-0.8679
N11820 X2.4183 Y-0.8551
N11825 X2.4118 Y-0.8462
N11830 X2.3964 Y-0.8251
N11835 X2.3847 Y-0.8101
N11840 X2.3721 Y-0.7951
N11845 X2.3592 Y-0.7801
N11850 X2.3519 Y-0.7718
N11855 X2.3307 Y-0.7501
N11860 X2.3219 Y-0.7415
N11865 X2.3154 Y-0.7351
N11870 X2.307 Y-0.7272
N11875 X2.292 Y-0.714
N11880 X2.2816 Y-0.7051
N11885 X2.262 Y-0.6892
N11890 X2.2436 Y-0.6751
N11895 X2.232 Y-0.6671
N11900 X2.1997 Y-0.6451
N11905 X2.1871 Y-0.6376
N11910 X2.1571 Y-0.62
N11915 X2.1479 Y-0.6152
N11920 X2.1271 Y-0.6044
N11925 X2.1187 Y-0.6002
N11930 X2.1122 Y-0.5972
N11935 X2.0822 Y-0.5842
N11940 X2.0672 Y-0.5779
N11945 X2.0372 Y-0.5661
N11950 X2.0223 Y-0.5598
N11955 X1.9923 Y-0.5449
N11960 X1.9623 Y-0.5295
N11965 X1.954 Y-0.5252
N11970 X1.9473 Y-0.5211
N11975 X1.9174 Y-0.5008
N11980 X1.9024 Y-0.4904
N11985 X1.8874 Y-0.4801
N11990 X1.8724 Y-0.4692
N11995 X1.8574 Y-0.4576
N12000 X1.8424 Y-0.4461
N12005 X1.8275 Y-0.4356
N12010 X1.8125 Y-0.4262
N12015 X1.805 Y-0.4232
N12020 X1.7975 Y-0.4215
N12025 X1.79 Y-0.4209
N12030 X1.7825 Y-0.4215
N12035 X1.775 Y-0.4232
N12040 X1.7675 Y-0.4262
N12045 X1.7525 Y-0.4356
N12050 X1.7376 Y-0.4463
N12055 X1.7226 Y-0.4576
N12060 X1.7127 Y-0.4652
N12065 X1.7076 Y-0.4692
N12070 X1.6926 Y-0.4803
N12075 X1.6776 Y-0.4907
N12080 X1.6626 Y-0.5006
N12085 X1.6476 Y-0.511
N12090 X1.6327 Y-0.5211
N12095 X1.6261 Y-0.5252
N12100 X1.6177 Y-0.5297
N12105 X1.5877 Y-0.5458
N12110 X1.5679 Y-0.5552
N12115 X1.5577 Y-0.56
N12120 X1.5428 Y-0.566
N12125 X1.5128 Y-0.5774
N12130 X1.4978 Y-0.5841
N12135 X1.4678 Y-0.5981
N12140 X1.4328 Y-0.6152
N12145 X1.4229 Y-0.6202
N12150 X1.3929 Y-0.6385
N12155 X1.3821 Y-0.6451
N12160 X1.3779 Y-0.6479
N12165 X1.348 Y-0.6679
N12170 X1.3373 Y-0.6751
N12175 X1.2994 Y-0.7051
N12180 X1.288 Y-0.7148
N12185 X1.274 Y-0.7273
N12190 X1.2713 Y-0.7306 Z-0.2361
N12195 X1.2687 Y-0.7339 Z-0.2352
N12200 X1.2661 Y-0.737 Z-0.2337
N12205 X1.2646 Y-0.7402 Z-0.2318
N12210 X1.2632 Y-0.7433 Z-0.2295
N12215 X1.262 Y-0.746 Z-0.2267
N12220 X1.2609 Y-0.7483 Z-0.2236
N12225 X1.2604 Y-0.7503 Z-0.2203
N12230 X1.26 Y-0.7519 Z-0.2168
N12235 X1.2597 Y-0.7531 Z-0.2131
N12240 X1.2595 Y-0.7538 Z-0.2093
N12245 X1.2594 Y-0.754 Z-0.2055
N12250 G0 Z-0.097
N12255 G1 X1.6276 Y-1.7018 F500.
N12260 Z-0.147 F22.8
N12265 X1.6273 Y-1.7021 Z-0.1526
N12270 X1.6267 Y-1.7028 Z-0.1581
N12275 X1.6257 Y-1.7039 Z-0.1635
N12280 X1.6242 Y-1.7055 Z-0.1687
N12285 X1.6224 Y-1.7075 Z-0.1736
N12290 X1.6202 Y-1.7099 Z-0.1782
N12295 X1.6176 Y-1.7126 Z-0.1824
N12300 X1.6148 Y-1.7157 Z-0.1861
N12305 X1.6117 Y-1.719 Z-0.1894
N12310 X1.6084 Y-1.7227 Z-0.1921
N12315 X1.6049 Y-1.7265 Z-0.1942
N12320 X1.6012 Y-1.7304 Z-0.1958
N12325 X1.5975 Y-1.7345 Z-0.1967
N12330 X1.5937 Y-1.7386 Z-0.197
N12335 G3 X1.4303 Y-1.9598 I0.9391 J-0.8646
N12340 G1 X1.4275 Y-1.9651
N12345 X1.4264 Y-1.971
N12350 X1.4268 Y-1.9823
N12355 X1.4294 Y-1.9932
N12360 X1.4341 Y-2.0035
N12365 X1.4408 Y-2.0126
N12370 X1.449 Y-2.0203
N12375 X1.4587 Y-2.0261
N12380 X1.4678 Y-2.0306
N12385 X1.4905 Y-2.0398
N12390 X1.4978 Y-2.0428
N12395 X1.5128 Y-2.0488
N12400 X1.5577 Y-2.0648
N12405 X1.5716 Y-2.0698
N12410 X1.5877 Y-2.0764
N12415 X1.6027 Y-2.0823
N12420 X1.6177 Y-2.088
N12425 X1.6327 Y-2.0941
N12430 X1.6626 Y-2.1086
N12435 X1.6763 Y-2.1148
N12440 X1.7076 Y-2.13
N12445 X1.7226 Y-2.1374
N12450 X1.7376 Y-2.1448
N12455 X1.7525 Y-2.1523
N12460 X1.76 Y-2.1562
N12465 X1.7675 Y-2.1589
N12470 X1.7714 Y-2.1598
N12475 X1.777 Y-2.1606
N12480 X1.7825 Y-2.1608
N12485 X1.7975
N12490 X1.803 Y-2.1606
N12495 X1.8084 Y-2.1598
N12500 X1.8125 Y-2.1588
N12505 X1.82 Y-2.156
N12510 X1.8275 Y-2.1523
N12515 X1.8432 Y-2.1448
N12520 X1.8574 Y-2.138
N12525 X1.873 Y-2.1298
N12530 X1.9038 Y-2.1148
N12535 X1.9174 Y-2.1086
N12540 X1.9473 Y-2.0941
N12545 X1.9623 Y-2.0876
N12550 X1.9688 Y-2.0848
N12555 X1.9773 Y-2.0818
N12560 X1.9923 Y-2.0764
N12565 X2.0223 Y-2.0651
N12570 X2.0372 Y-2.0598
N12575 X2.0672 Y-2.0488
N12580 X2.0898 Y-2.0398
N12585 X2.1122 Y-2.0308
N12590 X2.1271 Y-2.024
N12595 X2.1421 Y-2.0171
N12600 X2.1571 Y-2.0098
N12605 X2.1871 Y-1.9934
N12610 X2.2021 Y-1.9848
N12615 X2.2171 Y-1.9757
N12620 X2.2337 Y-1.9648
N12625 X2.247 Y-1.9558
N12630 X2.277 Y-1.9344
N12635 X2.292 Y-1.9225
N12640 X2.3219 Y-1.8978
N12645 X2.3311 Y-1.8899
N12650 X2.3669 Y-1.8554
N12655 X2.377 Y-1.8449
N12660 X2.4037 Y-1.8149
N12665 X2.4118 Y-1.8056
N12670 X2.4164 Y-1.7999
N12675 X2.4418 Y-1.7669
N12680 X2.4507 Y-1.7549
N12685 X2.4568 Y-1.746
N12690 X2.4718 Y-1.7232
N12695 X2.48 Y-1.7099
N12700 X2.489 Y-1.6949
N12705 X2.4979 Y-1.6799
N12710 X2.521 Y-1.6349
N12715 X2.5275 Y-1.6199
N12720 X2.5403 Y-1.5899
N12725 X2.5518 Y-1.5599
N12730 X2.5574 Y-1.5449
N12735 X2.5676 Y-1.5149
N12740 X2.5731 Y-1.5
N12745 X2.5789 Y-1.485
N12750 X2.5844 Y-1.47
N12755 X2.5979 Y-1.44
N12760 X2.6049 Y-1.425
N12765 X2.6066 Y-1.4213
N12770 X2.6117 Y-1.41
N12775 X2.6186 Y-1.395
N12780 X2.6261 Y-1.38
N12785 X2.6411 Y-1.35
N12790 X2.6484 Y-1.335
N12795 X2.6562 Y-1.32
N12800 X2.6589 Y-1.3125
N12805 X2.6604 Y-1.305
N12810 X2.6608 Y-1.29
N12815 X2.6603 Y-1.275
N12820 X2.6588 Y-1.2675
N12825 X2.656 Y-1.26
N12830 X2.6516 Y-1.2512
N12835 X2.6486 Y-1.245
N12840 X2.6417 Y-1.23
N12845 X2.6366 Y-1.2199
N12850 X2.6216 Y-1.1912
N12855 X2.6185 Y-1.185
N12860 X2.6118 Y-1.17
N12865 X2.6066 Y-1.1585
N12870 X2.605 Y-1.155
N12875 X2.5983 Y-1.14
N12880 X2.5856 Y-1.11
N12885 X2.5797 Y-1.095
N12890 X2.5734 Y-1.08
N12895 X2.5676 Y-1.0651
N12900 X2.5574 Y-1.0351
N12905 X2.5518 Y-1.0201
N12910 X2.5403 Y-0.9901
N12915 X2.5275 Y-0.9601
N12920 X2.521 Y-0.9451
N12925 X2.4978 Y-0.9001
N12930 X2.4889 Y-0.8851
N12935 X2.48 Y-0.8701
N12940 X2.4718 Y-0.8568
N12945 X2.4568 Y-0.8339
N12950 X2.4507 Y-0.8251
N12955 X2.4418 Y-0.8131
N12960 X2.4164 Y-0.7801
N12965 X2.4118 Y-0.7743
N12970 X2.4037 Y-0.7651
N12975 X2.3771 Y-0.7351
N12980 X2.3669 Y-0.7246
N12985 X2.3311 Y-0.6901
N12990 X2.3219 Y-0.6822
N12995 X2.292 Y-0.6575
N13000 X2.277 Y-0.6455
N13005 X2.247 Y-0.624
N13010 X2.234 Y-0.6152
N13015 X2.2171 Y-0.6042
N13020 X2.2021 Y-0.5949
N13025 X2.1871 Y-0.5864
N13030 X2.1571 Y-0.5701
N13035 X2.1421 Y-0.5628
N13040 X2.1256 Y-0.5552
N13045 X2.1122 Y-0.5491
N13050 X2.0898 Y-0.5402
N13055 X2.0672 Y-0.5312
N13060 X2.0372 Y-0.5203
N13065 X2.0084 Y-0.5102
N13070 X1.9923 Y-0.5036
N13075 X1.9773 Y-0.4977
N13080 X1.9623 Y-0.492
N13085 X1.9473 Y-0.4859
N13090 X1.9174 Y-0.4714
N13095 X1.9037 Y-0.4652
N13100 X1.8724 Y-0.45
N13105 X1.8574 Y-0.4426
N13110 X1.8424 Y-0.4352
N13115 X1.8275 Y-0.4277
N13120 X1.82 Y-0.4238
N13125 X1.8125 Y-0.4211
N13130 X1.8086 Y-0.4202
N13135 X1.803 Y-0.4194
N13140 X1.7975 Y-0.4192
N13145 X1.7825
N13150 X1.777 Y-0.4194
N13155 X1.7716 Y-0.4202
N13160 X1.7675 Y-0.4212
N13165 X1.76 Y-0.424
N13170 X1.7525 Y-0.4277
N13175 X1.7368 Y-0.4352
N13180 X1.7226 Y-0.442
N13185 X1.707 Y-0.4502
N13190 X1.6762 Y-0.4652
N13195 X1.6626 Y-0.4714
N13200 X1.6327 Y-0.4859
N13205 X1.6177 Y-0.4924
N13210 X1.6112 Y-0.4952
N13215 X1.6027 Y-0.4982
N13220 X1.5877 Y-0.5036
N13225 X1.5577 Y-0.5151
N13230 X1.5428 Y-0.5206
N13235 X1.5128 Y-0.5312
N13240 X1.4978 Y-0.5372
N13245 X1.4678 Y-0.5495
N13250 X1.4253 Y-0.5702
N13255 X1.3929 Y-0.5876
N13260 X1.3779 Y-0.5961
N13265 X1.3476 Y-0.6152
N13270 X1.333 Y-0.625
N13275 X1.303 Y-0.6465
N13280 X1.2581 Y-0.682
N13285 X1.249 Y-0.6901
N13290 X1.2131 Y-0.7256
N13295 X1.2037 Y-0.7351
N13300 X1.1895 Y-0.7501
N13305 X1.1831 Y-0.7573
N13310 X1.1382 Y-0.8126
N13315 X1.1291 Y-0.8251
N13320 X1.1082 Y-0.8561
N13325 X1.0996 Y-0.8701
N13330 X1.0822 Y-0.9001
N13335 X1.0782 Y-0.9075
N13340 X1.0594 Y-0.9451
N13345 X1.0527 Y-0.9601
N13350 X1.0463 Y-0.9751
N13355 X1.0398 Y-0.9901
N13360 X1.0281 Y-1.0201
N13365 X1.0224 Y-1.0351
N13370 X1.0124 Y-1.0651
N13375 X1.0069 Y-1.08
N13380 X1.0011 Y-1.095
N13385 X0.9956 Y-1.11
N13390 X0.9821 Y-1.14
N13395 X0.9751 Y-1.155
N13400 X0.9734 Y-1.1587
N13405 X0.9683 Y-1.17
N13410 X0.9614 Y-1.185
N13415 X0.9539 Y-1.2
N13420 X0.9389 Y-1.23
N13425 X0.9316 Y-1.245
N13430 X0.9238 Y-1.26
N13435 X0.9211 Y-1.2675
N13440 X0.9196 Y-1.275
N13445 X0.9192 Y-1.29
N13450 X0.9197 Y-1.305
N13455 X0.9212 Y-1.3125
N13460 X0.924 Y-1.32
N13465 X0.9284 Y-1.3288
N13470 X0.9314 Y-1.335
N13475 X0.9383 Y-1.35
N13480 X0.9434 Y-1.3601
N13485 X0.9584 Y-1.3888
N13490 X0.9615 Y-1.395
N13495 X0.9734 Y-1.4214
N13500 X0.9751 Y-1.425
N13505 X0.9821 Y-1.44
N13510 X0.9956 Y-1.47
N13515 X1.0011 Y-1.485
N13520 X1.0069 Y-1.5
N13525 X1.0124 Y-1.5149
N13530 X1.0224 Y-1.5449
N13535 X1.0281 Y-1.5599
N13540 X1.0398 Y-1.5899
N13545 X1.0528 Y-1.6199
N13550 X1.0594 Y-1.6349
N13555 X1.0782 Y-1.6726
N13560 X1.0822 Y-1.6799
N13565 X1.0996 Y-1.7099
N13570 X1.1082 Y-1.724
N13575 X1.1291 Y-1.7549
N13580 X1.1382 Y-1.7673
N13585 X1.1682 Y-1.8043
N13590 X1.1831 Y-1.8227
N13595 X1.1895 Y-1.8299
N13600 X1.2036 Y-1.8449
N13605 X1.2131 Y-1.8544
N13610 X1.2491 Y-1.8899
N13615 X1.2581 Y-1.898
N13620 X1.288 Y-1.9218
N13625 X1.303 Y-1.9336
N13630 X1.333 Y-1.9552
N13635 X1.3472 Y-1.9648
N13640 X1.3779 Y-1.9841
N13645 X1.3929 Y-1.9926
N13650 X1.425 Y-2.0098
N13655 X1.4587 Y-2.0261
N13660 X1.4628 Y-2.0274 Z-0.1967
N13665 X1.4668 Y-2.0286 Z-0.1958
N13670 X1.4706 Y-2.0297 Z-0.1944
N13675 X1.4736 Y-2.0299 Z-0.1929
N13680 X1.4763 Y-2.0302 Z-0.1911
N13685 X1.4788 Y-2.0304 Z-0.189
N13690 X1.4818 Y-2.0301 Z-0.1859
N13695 X1.4843 Y-2.0298 Z-0.1825
N13700 X1.4863 Y-2.0296 Z-0.1787
N13705 X1.4878 Y-2.0295 Z-0.1746
N13710 X1.4886 Y-2.0294 Z-0.1704
N13715 X1.4889 Y-2.0293 Z-0.1661
N13720 G0 Z-0.0576
N13725 G1 X1.6256 Y-1.7482 F500.
N13730 Z-0.1076 F22.8
N13735 X1.6254 Y-1.7484 Z-0.1132
N13740 X1.6248 Y-1.7492 Z-0.1188
N13745 X1.6238 Y-1.7503 Z-0.1242
N13750 X1.6224 Y-1.752 Z-0.1293
N13755 X1.6206 Y-1.754 Z-0.1343
N13760 X1.6185 Y-1.7565 Z-0.1388
N13765 X1.6161 Y-1.7594 Z-0.143
N13770 X1.6134 Y-1.7626 Z-0.1467
N13775 X1.6105 Y-1.7661 Z-0.15
N13780 X1.6073 Y-1.7698 Z-0.1527
N13785 X1.6039 Y-1.7738 Z-0.1548
N13790 X1.6005 Y-1.7779 Z-0.1564
N13795 X1.5969 Y-1.7821 Z-0.1573
N13800 X1.5933 Y-1.7864 Z-0.1576
N13805 G3 X1.4393 Y-2.0142 I0.9744 J-0.8246
N13810 G1 X1.4367 Y-2.0196
N13815 X1.4371 Y-2.029
N13820 X1.4398 Y-2.0381
N13825 X1.4446 Y-2.0463
N13830 X1.4512 Y-2.0531
N13835 X1.4592 Y-2.0582
N13840 X1.4678 Y-2.0623
N13845 X1.4828 Y-2.0678
N13850 X1.5428 Y-2.0891
N13855 X1.5577 Y-2.0941
N13860 X1.5877 Y-2.1025
N13865 X1.6027 Y-2.1069
N13870 X1.6327 Y-2.1162
N13875 X1.6476 Y-2.1206
N13880 X1.6626 Y-2.1249
N13885 X1.6776 Y-2.1295
N13890 X1.7187 Y-2.1448
N13895 X1.7525 Y-2.1572
N13900 X1.7573 Y-2.1587
N13905 X1.762 Y-2.1598
N13910 X1.7675 Y-2.1605
N13915 X1.7825 Y-2.1608
N13920 X1.7975
N13925 X1.8125 Y-2.1605
N13930 X1.818 Y-2.1598
N13935 X1.8227 Y-2.1587
N13940 X1.8275 Y-2.1571
N13945 X1.8598 Y-2.1448
N13950 X1.8724 Y-2.1402
N13955 X1.9024 Y-2.1298
N13960 X1.9174 Y-2.125
N13965 X1.9473 Y-2.1157
N13970 X1.9773 Y-2.1068
N13975 X1.9923 Y-2.1025
N13980 X2.0223 Y-2.0942
N13985 X2.0372 Y-2.0894
N13990 X2.0672 Y-2.0793
N13995 X2.0972 Y-2.0681
N14000 X2.1122 Y-2.0624
N14005 X2.1421 Y-2.0487
N14010 X2.1571 Y-2.0416
N14015 X2.1891 Y-2.0248
N14020 X2.2021 Y-2.0178
N14025 X2.232 Y-1.9998
N14030 X2.2402 Y-1.9948
N14035 X2.2633 Y-1.9798
N14040 X2.277 Y-1.9704
N14045 X2.2843 Y-1.9648
N14050 X2.3233 Y-1.9349
N14055 X2.3404 Y-1.9199
N14060 X2.3669 Y-1.8965
N14065 X2.3734 Y-1.8899
N14070 X2.4026 Y-1.8599
N14075 X2.4118 Y-1.8501
N14080 X2.4163 Y-1.8449
N14085 X2.4418 Y-1.8145
N14090 X2.4536 Y-1.7999
N14095 X2.4752 Y-1.7699
N14100 X2.4856 Y-1.7549
N14105 X2.4954 Y-1.7399
N14110 X2.5046 Y-1.7249
N14115 X2.5133 Y-1.7099
N14120 X2.5317 Y-1.6767
N14125 X2.5378 Y-1.6649
N14130 X2.5522 Y-1.6349
N14135 X2.5587 Y-1.6199
N14140 X2.5714 Y-1.5899
N14145 X2.5767 Y-1.5749
N14150 X2.5819 Y-1.5599
N14155 X2.5921 Y-1.5299
N14160 X2.5965 Y-1.5149
N14165 X2.6005 Y-1.5
N14170 X2.6092 Y-1.47
N14175 X2.6138 Y-1.455
N14180 X2.6216 Y-1.4297
N14185 X2.6229 Y-1.425
N14190 X2.6323 Y-1.395
N14195 X2.6366 Y-1.3822
N14200 X2.6485 Y-1.35
N14205 X2.6542 Y-1.335
N14210 X2.6594 Y-1.32
N14215 X2.6605 Y-1.3125
N14220 X2.6608 Y-1.305
N14225 Y-1.275
N14230 X2.6605 Y-1.2675
N14235 X2.6594 Y-1.26
N14240 X2.6544 Y-1.245
N14245 X2.6516 Y-1.2373
N14250 X2.6489 Y-1.23
N14255 X2.6366 Y-1.1976
N14260 X2.6322 Y-1.185
N14265 X2.6223 Y-1.155
N14270 X2.6216 Y-1.1529
N14275 X2.6134 Y-1.125
N14280 X2.609 Y-1.11
N14285 X2.6006 Y-1.08
N14290 X2.5961 Y-1.0651
N14295 X2.5869 Y-1.0351
N14300 X2.5819 Y-1.0201
N14305 X2.5767 Y-1.005
N14310 X2.5715 Y-0.9901
N14315 X2.5587 Y-0.9601
N14320 X2.5522 Y-0.9451
N14325 X2.5378 Y-0.9151
N14330 X2.5317 Y-0.9033
N14335 X2.5133 Y-0.8701
N14340 X2.5045 Y-0.8551
N14345 X2.4953 Y-0.8401
N14350 X2.4856 Y-0.8251
N14355 X2.4753 Y-0.8101
N14360 X2.4536 Y-0.7801
N14365 X2.4415 Y-0.7651
N14370 X2.4268 Y-0.7476
N14375 X2.4118 Y-0.7298
N14380 X2.4027 Y-0.7201
N14385 X2.3734 Y-0.6901
N14390 X2.3669 Y-0.6836
N14395 X2.3369 Y-0.6571
N14400 X2.3233 Y-0.6451
N14405 X2.2844 Y-0.6152
N14410 X2.277 Y-0.6095
N14415 X2.2635 Y-0.6002
N14420 X2.2405 Y-0.5852
N14425 X2.232 Y-0.58
N14430 X2.2158 Y-0.5702
N14435 X2.2021 Y-0.5619
N14440 X2.1871 Y-0.5539
N14445 X2.1571 Y-0.5382
N14450 X2.1421 Y-0.5312
N14455 X2.1122 Y-0.5176
N14460 X2.0972 Y-0.5119
N14465 X2.0672 Y-0.5007
N14470 X2.0372 Y-0.4906
N14475 X2.0223 Y-0.4858
N14480 X1.9923 Y-0.4775
N14485 X1.9773 Y-0.4731
N14490 X1.9473 Y-0.4638
N14495 X1.9324 Y-0.4594
N14500 X1.9174 Y-0.4551
N14505 X1.9024 Y-0.4505
N14510 X1.8613 Y-0.4352
N14515 X1.8275 Y-0.4228
N14520 X1.8227 Y-0.4213
N14525 X1.818 Y-0.4202
N14530 X1.8125 Y-0.4195
N14535 X1.7975 Y-0.4192
N14540 X1.7825
N14545 X1.7675 Y-0.4195
N14550 X1.762 Y-0.4202
N14555 X1.7573 Y-0.4213
N14560 X1.7525 Y-0.4229
N14565 X1.7202 Y-0.4352
N14570 X1.7076 Y-0.4398
N14575 X1.6776 Y-0.4502
N14580 X1.6626 Y-0.455
N14585 X1.6327 Y-0.4643
N14590 X1.6027 Y-0.4732
N14595 X1.5877 Y-0.4775
N14600 X1.5577 Y-0.4858
N14605 X1.5428 Y-0.4909
N14610 X1.4828 Y-0.5122
N14615 X1.4678 Y-0.5177
N14620 X1.4522 Y-0.5252
N14625 X1.4214 Y-0.5402
N14630 X1.3908 Y-0.5552
N14635 X1.3779 Y-0.5623
N14640 X1.3176 Y-0.6002
N14645 X1.303 Y-0.6102
N14650 X1.2964 Y-0.6152
N14655 X1.2581 Y-0.6455
N14660 X1.2397 Y-0.6601
N14665 X1.2281 Y-0.6705
N14670 X1.1831 Y-0.715
N14675 X1.178 Y-0.7201
N14680 X1.1682 Y-0.7303
N14685 X1.1277 Y-0.7801
N14690 X1.1052 Y-0.8101
N14695 X1.0945 Y-0.8251
N14700 X1.0844 Y-0.8401
N14705 X1.0753 Y-0.8551
N14710 X1.0665 Y-0.8701
N14715 X1.0483 Y-0.9026
N14720 X1.0421 Y-0.9151
N14725 X1.0275 Y-0.9451
N14730 X1.0211 Y-0.9601
N14735 X1.0089 Y-0.9901
N14740 X1.0033 Y-1.0051
N14745 X0.9979 Y-1.0201
N14750 X0.993 Y-1.0351
N14755 X0.9838 Y-1.0651
N14760 X0.9793 Y-1.08
N14765 X0.9708 Y-1.11
N14770 X0.9662 Y-1.125
N14775 X0.9584 Y-1.1503
N14780 X0.9571 Y-1.155
N14785 X0.9477 Y-1.185
N14790 X0.9434 Y-1.1978
N14795 X0.9315 Y-1.23
N14800 X0.9258 Y-1.245
N14805 X0.9206 Y-1.26
N14810 X0.9195 Y-1.2675
N14815 X0.9192 Y-1.275
N14820 Y-1.305
N14825 X0.9195 Y-1.3125
N14830 X0.9206 Y-1.32
N14835 X0.9256 Y-1.335
N14840 X0.9284 Y-1.3427
N14845 X0.9311 Y-1.35
N14850 X0.9434 Y-1.3824
N14855 X0.9478 Y-1.395
N14860 X0.9577 Y-1.425
N14865 X0.9584 Y-1.4271
N14870 X0.9666 Y-1.455
N14875 X0.971 Y-1.47
N14880 X0.9793 Y-1.5
N14885 X0.9838 Y-1.5149
N14890 X0.993 Y-1.5449
N14895 X0.9979 Y-1.5599
N14900 X1.0033 Y-1.575
N14905 X1.0089 Y-1.5899
N14910 X1.0211 Y-1.6199
N14915 X1.0275 Y-1.6349
N14920 X1.0421 Y-1.6649
N14925 X1.0483 Y-1.6773
N14930 X1.0666 Y-1.7099
N14935 X1.0753 Y-1.7249
N14940 X1.0844 Y-1.7399
N14945 X1.0945 Y-1.7549
N14950 X1.1052 Y-1.7699
N14955 X1.1276 Y-1.7999
N14960 X1.1682 Y-1.8497
N14965 X1.178 Y-1.8599
N14970 X1.2082 Y-1.8899
N14975 X1.2281 Y-1.9094
N14980 X1.2398 Y-1.9199
N14985 X1.2583 Y-1.9349
N14990 X1.2963 Y-1.9648
N14995 X1.303 Y-1.97
N15000 X1.3172 Y-1.9798
N15005 X1.3779 Y-2.0179
N15010 X1.3905 Y-2.0248
N15015 X1.4229 Y-2.0406
N15020 X1.4529 Y-2.0552
N15025 X1.4592 Y-2.0582
N15030 X1.4633 Y-2.0594 Z-0.1573
N15035 X1.4673 Y-2.0605 Z-0.1565
N15040 X1.4712 Y-2.0617 Z-0.155
N15045 X1.4739 Y-2.0619 Z-0.1536
N15050 X1.4766 Y-2.0621 Z-0.1519
N15055 X1.479 Y-2.0623 Z-0.1499
N15060 X1.4821 Y-2.062 Z-0.1468
N15065 X1.4847 Y-2.0617 Z-0.1433
N15070 X1.4867 Y-2.0615 Z-0.1395
N15075 X1.4882 Y-2.0613 Z-0.1354
N15080 X1.4891 Y-2.0612 Z-0.1311
N15085 X1.4895 Z-0.1267
N15090 G0 Z-0.0183
N15095 G1 X2.0734 Y-0.5703 F500.
N15100 Z-0.0683 F22.8
N15105 X2.0732 Y-0.5701 Z-0.0739
N15110 X2.0726 Y-0.5694 Z-0.0794
N15115 X2.0715 Y-0.5682 Z-0.0848
N15120 X2.0701 Y-0.5667 Z-0.09
N15125 X2.0682 Y-0.5647 Z-0.0949
N15130 X2.066 Y-0.5623 Z-0.0995
N15135 X2.0635 Y-0.5596 Z-0.1036
N15140 X2.0606 Y-0.5565 Z-0.1074
N15145 X2.0575 Y-0.5531 Z-0.1106
N15150 X2.0542 Y-0.5495 Z-0.1133
N15155 X2.0506 Y-0.5458 Z-0.1155
N15160 X2.047 Y-0.5418 Z-0.117
N15165 X2.0432 Y-0.5378 Z-0.118
N15170 X2.0394 Y-0.5337 Z-0.1183
N15175 G3 X1.7893 Y-0.4194 I-0.2627 J-0.2441
N15180 G1 X1.7675
N15185 X1.7546 Y-0.4202
N15190 X1.7525 Y-0.4205
N15195 X1.7376 Y-0.4243
N15200 X1.7226 Y-0.4281
N15205 X1.6926 Y-0.4359
N15210 X1.6776 Y-0.4396
N15215 X1.6476 Y-0.4462
N15220 X1.6296 Y-0.4502
N15225 X1.6027 Y-0.4563
N15230 X1.5877 Y-0.4601
N15235 X1.5577 Y-0.4681
N15240 X1.5428 Y-0.473
N15245 X1.5278 Y-0.4783
N15250 X1.4804 Y-0.4952
N15255 X1.4678 Y-0.4998
N15260 X1.4379 Y-0.5135
N15265 X1.4229 Y-0.5205
N15270 X1.3929 Y-0.5351
N15275 X1.3828 Y-0.5402
N15280 X1.348 Y-0.5611
N15285 X1.333 Y-0.5704
N15290 X1.303 Y-0.5892
N15295 X1.288 Y-0.6002
N15300 X1.273 Y-0.6119
N15305 X1.2281 Y-0.6475
N15310 X1.2131 Y-0.6614
N15315 X1.1831 Y-0.691
N15320 X1.1691 Y-0.7051
N15325 X1.1532 Y-0.7229
N15330 X1.1423 Y-0.7351
N15335 X1.1179 Y-0.7651
N15340 X1.1082 Y-0.7771
N15345 X1.0932 Y-0.7974
N15350 X1.0841 Y-0.8101
N15355 X1.0782 Y-0.8187
N15360 X1.0742 Y-0.8251
N15365 X1.0557 Y-0.8551
N15370 X1.0483 Y-0.8675
N15375 X1.0468 Y-0.8701
N15380 X1.0385 Y-0.8851
N15385 X1.0306 Y-0.9001
N15390 X1.0232 Y-0.9151
N15395 X1.0089 Y-0.9451
N15400 X1.0033 Y-0.9583
N15405 X0.9905 Y-0.9901
N15410 X0.9883 Y-0.9963
N15415 X0.9803 Y-1.0201
N15420 X0.9753 Y-1.0351
N15425 X0.9662 Y-1.0651
N15430 X0.9618 Y-1.08
N15435 X0.9578 Y-1.095
N15440 X0.9541 Y-1.11
N15445 X0.9507 Y-1.125
N15450 X0.9434 Y-1.1587
N15455 X0.9375 Y-1.185
N15460 X0.9341 Y-1.2
N15465 X0.9264 Y-1.23
N15470 X0.9223 Y-1.245
N15475 X0.9205 Y-1.2525
N15480 X0.9197 Y-1.26
N15485 X0.9193 Y-1.275
N15490 X0.9192 Y-1.29
N15495 X0.9193 Y-1.305
N15500 X0.9197 Y-1.32
N15505 X0.9205 Y-1.3275
N15510 X0.9223 Y-1.335
N15515 X0.934 Y-1.38
N15520 X0.9375 Y-1.395
N15525 X0.9434 Y-1.4209
N15530 X0.9507 Y-1.455
N15535 X0.9541 Y-1.47
N15540 X0.9578 Y-1.485
N15545 X0.9618 Y-1.5
N15550 X0.9662 Y-1.5149
N15555 X0.9753 Y-1.5449
N15560 X0.9803 Y-1.5599
N15565 X0.9883 Y-1.5837
N15570 X0.9905 Y-1.5899
N15575 X1.0033 Y-1.6216
N15580 X1.0089 Y-1.6349
N15585 X1.0232 Y-1.6649
N15590 X1.0306 Y-1.6799
N15595 X1.0385 Y-1.6949
N15600 X1.0468 Y-1.7099
N15605 X1.0483 Y-1.7125
N15610 X1.0557 Y-1.7249
N15615 X1.0742 Y-1.7549
N15620 X1.0782 Y-1.7613
N15625 X1.0841 Y-1.7699
N15630 X1.0949 Y-1.7849
N15635 X1.1082 Y-1.803
N15640 X1.1301 Y-1.8299
N15645 X1.1423 Y-1.8449
N15650 X1.1556 Y-1.8599
N15655 X1.169 Y-1.8749
N15660 X1.184 Y-1.8899
N15665 X1.2131 Y-1.9185
N15670 X1.2281 Y-1.9326
N15675 X1.273 Y-1.9682
N15680 X1.288 Y-1.98
N15685 X1.303 Y-1.991
N15690 X1.333 Y-2.0098
N15695 X1.348 Y-2.0191
N15700 X1.3825 Y-2.0398
N15705 X1.3929 Y-2.0451
N15710 X1.4229 Y-2.0596
N15715 X1.4379 Y-2.0665
N15720 X1.4678 Y-2.0802
N15725 X1.4803 Y-2.0848
N15730 X1.5278 Y-2.1017
N15735 X1.5428 Y-2.107
N15740 X1.5577 Y-2.1119
N15745 X1.5877 Y-2.1199
N15750 X1.6027 Y-2.1237
N15755 X1.6327 Y-2.1305
N15760 X1.6776 Y-2.1409
N15765 X1.6926 Y-2.1442
N15770 X1.7076 Y-2.1481
N15775 X1.7226 Y-2.152
N15780 X1.7376 Y-2.1556
N15785 X1.7525 Y-2.1595
N15790 X1.7542 Y-2.1598
N15795 X1.7675 Y-2.1606
N15800 X1.7907
N15805 X1.8125
N15810 X1.8254 Y-2.1598
N15815 X1.8275 Y-2.1595
N15820 X1.8424 Y-2.1557
N15825 X1.8574 Y-2.1519
N15830 X1.8848 Y-2.1448
N15835 X1.8874 Y-2.1441
N15840 X1.9024 Y-2.1404
N15845 X1.9507 Y-2.1298
N15850 X1.9773 Y-2.124
N15855 X1.9923 Y-2.1202
N15860 X2.0223 Y-2.1116
N15865 X2.0522 Y-2.1028
N15870 X2.0609 Y-2.0998
N15875 X2.1016 Y-2.0848
N15880 X2.1122 Y-2.0808
N15885 X2.1421 Y-2.0673
N15890 X2.1571 Y-2.0606
N15895 X2.1686 Y-2.0548
N15900 X2.1871 Y-2.0452
N15905 X2.1974 Y-2.0398
N15910 X2.232 Y-2.02
N15915 X2.247 Y-2.0107
N15920 X2.277 Y-1.9913
N15925 X2.2927 Y-1.9798
N15930 X2.3219 Y-1.9577
N15935 X2.3314 Y-1.9498
N15940 X2.3519 Y-1.9324
N15945 X2.3669 Y-1.9192
N15950 X2.3971 Y-1.8899
N15955 X2.4118 Y-1.8746
N15960 X2.4268 Y-1.858
N15965 X2.4386 Y-1.8449
N15970 X2.4512 Y-1.8299
N15975 X2.463 Y-1.8149
N15980 X2.4718 Y-1.8037
N15985 X2.4746 Y-1.7999
N15990 X2.4868 Y-1.783
N15995 X2.4962 Y-1.7699
N16000 X2.5018 Y-1.7618
N16005 X2.5062 Y-1.7549
N16010 X2.5245 Y-1.7249
N16015 X2.5317 Y-1.7129
N16020 X2.5334 Y-1.7099
N16025 X2.5416 Y-1.6949
N16030 X2.5493 Y-1.6799
N16035 X2.5566 Y-1.6649
N16040 X2.5707 Y-1.6349
N16045 X2.5772 Y-1.6199
N16050 X2.5834 Y-1.6049
N16055 X2.5895 Y-1.5899
N16060 X2.5917 Y-1.5837
N16065 X2.5998 Y-1.5599
N16070 X2.6048 Y-1.5449
N16075 X2.6136 Y-1.5149
N16080 X2.6179 Y-1.5
N16085 X2.6221 Y-1.485
N16090 X2.6258 Y-1.47
N16095 X2.6293 Y-1.455
N16100 X2.6366 Y-1.4213
N16105 X2.6425 Y-1.395
N16110 X2.6459 Y-1.38
N16115 X2.6536 Y-1.35
N16120 X2.6577 Y-1.335
N16125 X2.6595 Y-1.3275
N16130 X2.6603 Y-1.32
N16135 X2.6607 Y-1.305
N16140 X2.6608 Y-1.29
N16145 X2.6607 Y-1.275
N16150 X2.6603 Y-1.26
N16155 X2.6595 Y-1.2525
N16160 X2.6577 Y-1.245
N16165 X2.646 Y-1.2
N16170 X2.6425 Y-1.185
N16175 X2.6366 Y-1.1591
N16180 X2.6293 Y-1.125
N16185 X2.6258 Y-1.11
N16190 X2.6221 Y-1.095
N16195 X2.618 Y-1.08
N16200 X2.6137 Y-1.0651
N16205 X2.6048 Y-1.0351
N16210 X2.5998 Y-1.0201
N16215 X2.5917 Y-0.9964
N16220 X2.5895 Y-0.9901
N16225 X2.5834 Y-0.9751
N16230 X2.5767 Y-0.9588
N16235 X2.5707 Y-0.9451
N16240 X2.5566 Y-0.9151
N16245 X2.5493 Y-0.9001
N16250 X2.5415 Y-0.8851
N16255 X2.5334 Y-0.8701
N16260 X2.5317 Y-0.8671
N16265 X2.5246 Y-0.8551
N16270 X2.5061 Y-0.8251
N16275 X2.5018 Y-0.8182
N16280 X2.4962 Y-0.8101
N16285 X2.4854 Y-0.7951
N16290 X2.4746 Y-0.7801
N16295 X2.4718 Y-0.7763
N16300 X2.4568 Y-0.7572
N16305 X2.4512 Y-0.7501
N16310 X2.4386 Y-0.7351
N16315 X2.4252 Y-0.7201
N16320 X2.4117 Y-0.7051
N16325 X2.3969 Y-0.6899
N16330 X2.3669 Y-0.6608
N16335 X2.3662 Y-0.6601
N16340 X2.3519 Y-0.6476
N16345 X2.3315 Y-0.6302
N16350 X2.3219 Y-0.6222
N16355 X2.292 Y-0.5995
N16360 X2.277 Y-0.5886
N16365 X2.247 Y-0.5691
N16370 X2.232 Y-0.5598
N16375 X2.1977 Y-0.5402
N16380 X2.1871 Y-0.5346
N16385 X2.1689 Y-0.5252
N16390 X2.1571 Y-0.5193
N16395 X2.1122 Y-0.4992
N16400 X2.1017 Y-0.4952
N16405 X2.0608 Y-0.4802
N16410 X2.0522 Y-0.4772
N16415 X2.0223 Y-0.4684
N16420 X1.9923 Y-0.4599
N16425 X1.9773 Y-0.456
N16430 X1.9473 Y-0.4495
N16435 X1.9324 Y-0.4461
N16440 X1.9024 Y-0.4391
N16445 X1.8874 Y-0.4358
N16450 X1.8724 Y-0.4319
N16455 X1.8574 Y-0.428
N16460 X1.8424 Y-0.4244
N16465 X1.8275 Y-0.4205
N16470 X1.8259 Y-0.4202
N16475 X1.8125 Y-0.4194
N16480 X1.7893
N16485 X1.785 Y-0.4201 Z-0.118
N16490 X1.7809 Y-0.4207 Z-0.1171
N16495 X1.7769 Y-0.4214 Z-0.1156
N16500 X1.7736 Y-0.4228 Z-0.1137
N16505 X1.7706 Y-0.4241 Z-0.1114
N16510 X1.7678 Y-0.4253 Z-0.1086
N16515 X1.7655 Y-0.4264 Z-0.1055
N16520 X1.7638 Y-0.4275 Z-0.1022
N16525 X1.7624 Y-0.4285 Z-0.0987
N16530 X1.7614 Y-0.4291 Z-0.095
N16535 X1.7608 Y-0.4295 Z-0.0912
N16540 X1.7606 Y-0.4297 Z-0.0874
N16545 G0 Z0.0211
N16550 G1 X2.0961 Y-0.5224 F500.
N16555 Z-0.0289 F22.8
N16560 X2.0958 Y-0.5223 Z-0.0345
N16565 X2.095 Y-0.5218 Z-0.04
N16570 X2.0937 Y-0.521 Z-0.0454
N16575 X2.0918 Y-0.5199 Z-0.0506
N16580 X2.0895 Y-0.5185 Z-0.0555
N16585 X2.0867 Y-0.5169 Z-0.0601
N16590 X2.0835 Y-0.515 Z-0.0643
N16595 X2.0799 Y-0.5128 Z-0.068
N16600 X2.076 Y-0.5105 Z-0.0712
N16605 X2.0718 Y-0.508 Z-0.074
N16610 X2.0673 Y-0.5053 Z-0.0761
N16615 X2.0627 Y-0.5026 Z-0.0777
N16620 X2.0579 Y-0.4997 Z-0.0786
N16625 X2.0531 Y-0.4969 Z-0.0789
N16630 G3 X1.7893 Y-0.4194 I-0.2832 J-0.4763
N16635 G1 X1.7675
N16640 X1.7597 Y-0.4202
N16645 X1.7376 Y-0.4226
N16650 X1.7226 Y-0.4242
N16655 X1.6926 Y-0.429
N16660 X1.6776 Y-0.4314
N16665 X1.6559 Y-0.4352
N16670 X1.6476 Y-0.4367
N16675 X1.6327 Y-0.4399
N16680 X1.5577 Y-0.4577
N16685 X1.5428 Y-0.4624
N16690 X1.5128 Y-0.4721
N16695 X1.4828 Y-0.4828
N16700 X1.4678 Y-0.4883
N16705 X1.4379 Y-0.5016
N16710 X1.4229 Y-0.5084
N16715 X1.3884 Y-0.5252
N16720 X1.3779 Y-0.5309
N16725 X1.348 Y-0.5483
N16730 X1.3366 Y-0.5552
N16735 X1.303 Y-0.5764
N16740 X1.2907 Y-0.5852
N16745 X1.2707 Y-0.6002
N16750 X1.2581 Y-0.6098
N16755 X1.2281 Y-0.6338
N16760 X1.2141 Y-0.6451
N16765 X1.2131 Y-0.646
N16770 X1.1682 Y-0.6904
N16775 X1.1532 Y-0.7058
N16780 X1.1403 Y-0.7201
N16785 X1.1232 Y-0.7413
N16790 X1.1039 Y-0.7651
N16795 X1.0932 Y-0.7784
N16800 X1.0919 Y-0.7801
N16805 X1.081 Y-0.7951
N16810 X1.071 Y-0.8101
N16815 X1.0633 Y-0.8217
N16820 X1.0483 Y-0.8459
N16825 X1.0427 Y-0.8551
N16830 X1.0344 Y-0.8701
N16835 X1.0183 Y-0.9012
N16840 X1.0114 Y-0.9151
N16845 X1.0033 Y-0.9317
N16850 X0.997 Y-0.9451
N16855 X0.9909 Y-0.9601
N16860 X0.9791 Y-0.9901
N16865 X0.9734 Y-1.0068
N16870 X0.9688 Y-1.0201
N16875 X0.9638 Y-1.0351
N16880 X0.9584 Y-1.0531
N16885 X0.9553 Y-1.0651
N16890 X0.9516 Y-1.08
N16895 X0.9434 Y-1.1142
N16900 X0.9411 Y-1.125
N16905 X0.9356 Y-1.155
N16910 X0.9329 Y-1.17
N16915 X0.9276 Y-1.2
N16920 X0.9228 Y-1.23
N16925 X0.9206 Y-1.245
N16930 X0.9201 Y-1.2533
N16935 Y-1.254
N16940 X0.9207 Y-1.2583 Z-0.0785
N16945 X0.9212 Y-1.2624 Z-0.0775
N16950 X0.9217 Y-1.2664 Z-0.0759
N16955 X0.923 Y-1.2698 Z-0.0738
N16960 X0.9243 Y-1.2729 Z-0.0713
N16965 X0.9253 Y-1.2757 Z-0.0683
N16970 X0.9263 Y-1.278 Z-0.065
N16975 X0.9272 Y-1.2796 Z-0.0619
N16980 X0.928 Y-1.2808 Z-0.0586
N16985 X0.9285 Y-1.2817 Z-0.0551
N16990 X0.9288 Y-1.2822 Z-0.0516
N16995 X0.929 Y-1.2824 Z-0.048
N17000 X1.5632 Y-1.3605 F500.
N17005 G0 Z-0.2939
N17010 G3 X1.5579 Y-1.3404 Z-0.3453 I0.2268 J0.0705 F22.8
N17015 X1.5544 Y-1.32 Z-0.3966 I0.2321 J0.0505
N17020 X1.5527 Y-1.2994 Z-0.448 I0.2356 J0.03
N17025 X1.5528 Y-1.2786 Z-0.4994 I0.2373 J0.0094
N17030 X1.5547 Y-1.258 Z-0.5508 I0.2372 J-0.0113
N17035 X1.5583 Y-1.2376 Z-0.6022 I0.2353 J-0.032
N17040 X2.0275 Y-1.29 Z-0.6301 I0.2317 J-0.0523
N17045 X1.5525 I-0.2375 J0.
N17050 X2.0275 I0.2375 J0.
N17055 G1 X2.0277 Y-1.2766
N17060 X2.0293 Y-1.2634
N17065 X2.0357 Y-1.2373
N17070 X2.0385 Y-1.221
N17075 X2.039 Y-1.2045
N17080 X2.0371 Y-1.1881
N17085 X2.0329 Y-1.1721
N17090 X2.0265 Y-1.1568
N17095 X2.0223 Y-1.1484
N17100 X2.0174 Y-1.14
N17105 X2.0073 Y-1.1258
N17110 X1.9803 Y-1.095
N17115 X1.9773 Y-1.0921
N17120 X1.9642 Y-1.08
N17125 X1.9623 Y-1.0785
N17130 X1.9473 Y-1.0685
N17135 X1.9174 Y-1.0494
N17140 X1.9099 Y-1.0454
N17145 X1.9024 Y-1.0421
N17150 X1.8724 Y-1.0305
N17155 X1.8649 Y-1.0277
N17160 X1.8574 Y-1.026
N17165 X1.8253 Y-1.0201
N17170 X1.8125 Y-1.0181
N17175 X1.7975 Y-1.018
N17180 X1.7825
N17185 X1.7675
N17190 X1.754 Y-1.0201
N17195 X1.7226 Y-1.0259
N17200 X1.7151 Y-1.0277
N17205 X1.7076 Y-1.0304
N17210 X1.6776 Y-1.0417
N17215 X1.6701 Y-1.0451
N17220 X1.6626 Y-1.0495
N17225 X1.6327 Y-1.0688
N17230 X1.6177 Y-1.0788
N17235 X1.6163 Y-1.08
N17240 X1.6027 Y-1.0918
N17245 X1.5994 Y-1.095
N17250 X1.5866 Y-1.11
N17255 X1.5727 Y-1.1264
N17260 X1.562 Y-1.14
N17265 X1.5577 Y-1.1469
N17270 X1.5534 Y-1.155
N17275 X1.5454 Y-1.17
N17280 X1.538 Y-1.185
N17285 X1.5347 Y-1.1925
N17290 X1.5324 Y-1.2
N17295 X1.5217 Y-1.2375
N17300 X1.5204 Y-1.245
N17305 X1.5176 Y-1.275
N17310 X1.5164 Y-1.29
N17315 X1.5176 Y-1.305
N17320 X1.5204 Y-1.335
N17325 X1.5217 Y-1.3425
N17330 X1.5324 Y-1.38
N17335 X1.5347 Y-1.3875
N17340 X1.538 Y-1.395
N17345 X1.5454 Y-1.41
N17350 X1.5534 Y-1.425
N17355 X1.5577 Y-1.4331
N17360 X1.562 Y-1.44
N17365 X1.5727 Y-1.4536
N17370 X1.5877 Y-1.4713
N17375 X1.5994 Y-1.485
N17380 X1.6027 Y-1.4882
N17385 X1.6163 Y-1.5
N17390 X1.6177 Y-1.5012
N17395 X1.6327 Y-1.5112
N17400 X1.6626 Y-1.5305
N17405 X1.6701 Y-1.5349
N17410 X1.6776 Y-1.5383
N17415 X1.7076 Y-1.5495
N17420 X1.7226 Y-1.5539
N17425 X1.7541 Y-1.5599
N17430 X1.7675 Y-1.562
N17435 X1.7825
N17440 X1.7975
N17445 X1.8125 Y-1.5619
N17450 X1.8253 Y-1.5599
N17455 X1.8574 Y-1.554
N17460 X1.8649 Y-1.5523
N17465 X1.8724 Y-1.5495
N17470 X1.9024 Y-1.5379
N17475 X1.9099 Y-1.5346
N17480 X1.9174 Y-1.5306
N17485 X1.9473 Y-1.5115
N17490 X1.9623 Y-1.5015
N17495 X1.9642 Y-1.5
N17500 X1.9773 Y-1.4879
N17505 X1.9803 Y-1.485
N17510 X2.0073 Y-1.4542
N17515 X2.0174 Y-1.44
N17520 X2.0223 Y-1.4316
N17525 X2.0408 Y-1.395
N17530 X2.0442 Y-1.3875
N17535 X2.0465 Y-1.38
N17540 X2.0553 Y-1.35
N17545 X2.059 Y-1.335
N17550 X2.0611 Y-1.32
N17555 X2.0619 Y-1.305
N17560 X2.0626 Y-1.29
N17565 X2.0619 Y-1.275
N17570 X2.0611 Y-1.26
N17575 X2.059 Y-1.245
N17580 X2.0553 Y-1.23
N17585 X2.0465 Y-1.2
N17590 X2.0442 Y-1.1925
N17595 X2.0408 Y-1.185
N17600 X2.0265 Y-1.1568
N17605 X2.024 Y-1.1534 Z-0.6298
N17610 X2.0215 Y-1.15 Z-0.6289
N17615 X2.0192 Y-1.1467 Z-0.6274
N17620 X2.0164 Y-1.1444 Z-0.6255
N17625 X2.0138 Y-1.1423 Z-0.6232
N17630 X2.0115 Y-1.1404 Z-0.6204
N17635 X2.0095 Y-1.1388 Z-0.6173
N17640 X2.0077 Y-1.1378 Z-0.614
N17645 X2.0063 Y-1.137 Z-0.6105
N17650 X2.0053 Y-1.1364 Z-0.6068
N17655 X2.0046 Y-1.136 Z-0.603
N17660 X2.0044 Y-1.1359 Z-0.5992
N17665 G0 Z0.2
N17670 G1 X1.0072 Y-1.0097 F500.
N17675 G0 Z0.0211
N17680 G1 Z-0.0289 F22.8
N17685 X1.0071 Y-1.01 Z-0.0345
N17690 X1.0066 Y-1.0108 Z-0.04
N17695 X1.0059 Y-1.0122 Z-0.0454
N17700 X1.0049 Y-1.0141 Z-0.0506
N17705 X1.0036 Y-1.0165 Z-0.0555
N17710 X1.0021 Y-1.0193 Z-0.0601
N17715 X1.0004 Y-1.0226 Z-0.0643
N17720 X0.9984 Y-1.0263 Z-0.068
N17725 X0.9963 Y-1.0304 Z-0.0712
N17730 X0.994 Y-1.0347 Z-0.074
N17735 X0.9916 Y-1.0393 Z-0.0761
N17740 X0.9891 Y-1.0441 Z-0.0777
N17745 X0.9865 Y-1.049 Z-0.0786
N17750 X0.9839 Y-1.0539 Z-0.0789
N17755 G3 X0.9199 Y-1.3214 I0.4901 J-0.2586
N17760 G1 X0.9206 Y-1.335
N17765 X0.9229 Y-1.35
N17770 X0.9277 Y-1.38
N17775 X0.9357 Y-1.425
N17780 X0.9411 Y-1.455
N17785 X0.9434 Y-1.4659
N17790 X0.9516 Y-1.5
N17795 X0.9553 Y-1.5149
N17800 X0.9584 Y-1.5268
N17805 X0.9638 Y-1.5449
N17810 X0.9688 Y-1.5599
N17815 X0.974 Y-1.5749
N17820 X0.9791 Y-1.5899
N17825 X0.9909 Y-1.6199
N17830 X0.997 Y-1.6349
N17835 X1.0041 Y-1.6499
N17840 X1.0115 Y-1.6649
N17845 X1.0189 Y-1.6799
N17850 X1.0344 Y-1.7099
N17855 X1.0427 Y-1.7249
N17860 X1.0483 Y-1.7341
N17865 X1.0633 Y-1.7583
N17870 X1.071 Y-1.7699
N17875 X1.081 Y-1.7849
N17880 X1.0918 Y-1.7999
N17885 X1.0932 Y-1.8017
N17890 X1.1082 Y-1.8203
N17895 X1.1281 Y-1.8449
N17900 X1.1403 Y-1.8599
N17905 X1.1532 Y-1.8742
N17910 X1.1684 Y-1.8899
N17915 X1.2131 Y-1.9339
N17920 X1.2141 Y-1.9349
N17925 X1.2326 Y-1.9498
N17930 X1.2581 Y-1.9703
N17935 X1.273 Y-1.9817
N17940 X1.2904 Y-1.9948
N17945 X1.303 Y-2.0038
N17950 X1.333 Y-2.0227
N17955 X1.3364 Y-2.0248
N17960 X1.348 Y-2.0318
N17965 X1.3779 Y-2.0492
N17970 X1.3881 Y-2.0548
N17975 X1.4229 Y-2.0717
N17980 X1.4379 Y-2.0785
N17985 X1.4678 Y-2.0917
N17990 X1.4828 Y-2.0972
N17995 X1.5128 Y-2.1079
N18000 X1.5428 Y-2.1177
N18005 X1.5577 Y-2.1223
N18010 X1.6327 Y-2.1401
N18015 X1.6476 Y-2.1433
N18020 X1.656 Y-2.1448
N18025 X1.6776 Y-2.1486
N18030 X1.6926 Y-2.1511
N18035 X1.7226 Y-2.1559
N18040 X1.7376 Y-2.1575
N18045 G3 X1.8193 Y-2.1593 I0.0598 J0.8641
N18050 X1.83 Y-2.1588 I-0.0059 J0.2322
N18055 G1 X1.8574 Y-2.1558
N18060 X1.8874 Y-2.151
N18065 X1.9024 Y-2.1485
N18070 X1.9324 Y-2.1433
N18075 X1.9473 Y-2.1403
N18080 X1.9773 Y-2.1338
N18085 X1.9944 Y-2.1298
N18090 X2.0223 Y-2.123
N18095 X2.0372 Y-2.1184
N18100 X2.0672 Y-2.1087
N18105 X2.0822 Y-2.1033
N18110 X2.0972 Y-2.0978
N18115 X2.1122 Y-2.0922
N18120 X2.1421 Y-2.0792
N18125 X2.1571 Y-2.0725
N18130 X2.1721 Y-2.0653
N18135 X2.1871 Y-2.058
N18140 X2.1932 Y-2.0548
N18145 X2.2021 Y-2.0499
N18150 X2.232 Y-2.0326
N18155 X2.2448 Y-2.0248
N18160 X2.262 Y-2.0138
N18165 X2.277 Y-2.0041
N18170 X2.2901 Y-1.9948
N18175 X2.3106 Y-1.9798
N18180 X2.3219 Y-1.9715
N18185 X2.33 Y-1.9648
N18190 X2.366 Y-1.9349
N18195 X2.3669 Y-1.934
N18200 X2.3819 Y-1.9198
N18205 X2.3971 Y-1.9049
N18210 X2.4122 Y-1.8899
N18215 X2.4268 Y-1.8739
N18220 X2.4418 Y-1.8572
N18225 X2.4528 Y-1.8449
N18230 X2.4766 Y-1.8149
N18235 X2.4868 Y-1.802
N18240 X2.4883 Y-1.7999
N18245 X2.4988 Y-1.7849
N18250 X2.5088 Y-1.7699
N18255 X2.5167 Y-1.758
N18260 X2.5372 Y-1.7249
N18265 X2.5457 Y-1.7099
N18270 X2.5617 Y-1.6794
N18275 X2.5689 Y-1.6649
N18280 X2.5767 Y-1.6489
N18285 X2.5829 Y-1.6349
N18290 X2.5889 Y-1.6199
N18295 X2.6007 Y-1.5899
N18300 X2.6066 Y-1.5729
N18305 X2.6111 Y-1.5599
N18310 X2.6162 Y-1.5449
N18315 X2.6216 Y-1.5264
N18320 X2.6246 Y-1.5149
N18325 X2.6285 Y-1.5
N18330 X2.6366 Y-1.4659
N18335 X2.6389 Y-1.455
N18340 X2.6444 Y-1.425
N18345 X2.6471 Y-1.41
N18350 X2.6524 Y-1.38
N18355 X2.6572 Y-1.35
N18360 X2.6594 Y-1.335
N18365 X2.6599 Y-1.3267
N18370 Y-1.326
N18375 X2.6593 Y-1.3217 Z-0.0785
N18380 X2.6588 Y-1.3176 Z-0.0775
N18385 X2.6583 Y-1.3136 Z-0.0759
N18390 X2.657 Y-1.3102 Z-0.0738
N18395 X2.6557 Y-1.3071 Z-0.0713
N18400 X2.6547 Y-1.3043 Z-0.0683
N18405 X2.6537 Y-1.302 Z-0.065
N18410 X2.6528 Y-1.3004 Z-0.0619
N18415 X2.652 Y-1.2992 Z-0.0586
N18420 X2.6515 Y-1.2983 Z-0.0551
N18425 X2.6512 Y-1.2978 Z-0.0516
N18430 X2.651 Y-1.2976 Z-0.048
N18435 X1.8604 Y-1.2689 F500.
N18440 G0 Z-0.4907
N18445 G1 Z-0.5407 F22.8
N18450 X1.8602 Y-1.2691 Z-0.5463
N18455 X1.8595 Y-1.2698 Z-0.5518
N18460 X1.8585 Y-1.271 Z-0.5572
N18465 X1.857 Y-1.2725 Z-0.5624
N18470 X1.8551 Y-1.2745 Z-0.5673
N18475 X1.8529 Y-1.2769 Z-0.5719
N18480 X1.8504 Y-1.2796 Z-0.5761
N18485 X1.8475 Y-1.2827 Z-0.5798
N18490 X1.8444 Y-1.286 Z-0.5831
N18495 X1.841 Y-1.2896 Z-0.5858
N18500 X1.8375 Y-1.2934 Z-0.5879
N18505 X1.8338 Y-1.2973 Z-0.5895
N18510 X1.8301 Y-1.3013 Z-0.5904
N18515 X1.8262 Y-1.3054 Z-0.5907
N18520 G3 X1.6611 Y-1.5253 I0.9324 J-0.8719
N18525 G1 X1.6582 Y-1.5306
N18530 X1.657 Y-1.5365
N18535 X1.6579 Y-1.5472
N18540 X1.6611 Y-1.5575
N18545 X1.6663 Y-1.5669
N18550 X1.6734 Y-1.575
N18555 X1.682 Y-1.5814
N18560 X1.6917 Y-1.586
N18565 X1.7151 Y-1.5939
N18570 X1.7226 Y-1.5955
N18575 X1.7525 Y-1.6
N18580 X1.7675 Y-1.602
N18585 X1.7825 Y-1.6019
N18590 X1.8125 Y-1.6015
N18595 X1.8275 Y-1.5995
N18600 X1.8574 Y-1.5947
N18605 X1.8724 Y-1.5906
N18610 X1.9024 Y-1.5806
N18615 X1.9162 Y-1.5749
N18620 X1.9473 Y-1.559
N18625 X1.9623 Y-1.5502
N18630 X1.9773 Y-1.5392
N18635 X1.9898 Y-1.5299
N18640 X1.9923 Y-1.5278
N18645 X2.0061 Y-1.5149
N18650 X2.0073 Y-1.5137
N18655 X2.034 Y-1.485
N18660 X2.0372 Y-1.4811
N18665 X2.0448 Y-1.47
N18670 X2.0522 Y-1.4589
N18675 X2.0547 Y-1.455
N18680 X2.0638 Y-1.44
N18685 X2.0672 Y-1.4342
N18690 X2.0713 Y-1.425
N18695 X2.0837 Y-1.395
N18700 X2.0888 Y-1.38
N18705 X2.0972 Y-1.3453
N18710 X2.0993 Y-1.335
N18715 X2.1013 Y-1.32
N18720 X2.1023 Y-1.29
N18725 X2.1013 Y-1.26
N18730 X2.0993 Y-1.245
N18735 X2.0972 Y-1.2347
N18740 X2.0888 Y-1.2
N18745 X2.0837 Y-1.185
N18750 X2.0713 Y-1.155
N18755 X2.0672 Y-1.1458
N18760 X2.0638 Y-1.14
N18765 X2.0547 Y-1.125
N18770 X2.0522 Y-1.1211
N18775 X2.0448 Y-1.11
N18780 X2.0372 Y-1.0989
N18785 X2.034 Y-1.095
N18790 X2.0073 Y-1.0663
N18795 X2.0061 Y-1.0651
N18800 X1.9923 Y-1.0522
N18805 X1.9898 Y-1.0501
N18810 X1.9773 Y-1.0408
N18815 X1.9623 Y-1.0298
N18820 X1.9473 Y-1.021
N18825 X1.9162 Y-1.0051
N18830 X1.9024 Y-0.9994
N18835 X1.8724 Y-0.9894
N18840 X1.8574 Y-0.9853
N18845 X1.8275 Y-0.9805
N18850 X1.8125 Y-0.9785
N18855 X1.7825 Y-0.9781
N18860 X1.7675 Y-0.978
N18865 X1.7525 Y-0.98
N18870 X1.7226 Y-0.9845
N18875 X1.7151 Y-0.9861
N18880 X1.6776 Y-0.9988
N18885 X1.6626 Y-1.0051
N18890 X1.6327 Y-1.0215
N18895 X1.6177 Y-1.0305
N18900 X1.6027 Y-1.0412
N18905 X1.5905 Y-1.0501
N18910 X1.5877 Y-1.0524
N18915 X1.5734 Y-1.0651
N18920 X1.5727 Y-1.0657
N18925 X1.5577 Y-1.0829
N18930 X1.5472 Y-1.095
N18935 X1.5428 Y-1.1005
N18940 X1.5354 Y-1.11
N18945 X1.5278 Y-1.1201
N18950 X1.5248 Y-1.125
N18955 X1.5165 Y-1.14
N18960 X1.5128 Y-1.1468
N18965 X1.5092 Y-1.155
N18970 X1.4965 Y-1.185
N18975 X1.4913 Y-1.2
N18980 X1.4828 Y-1.2338
N18985 X1.4806 Y-1.245
N18990 X1.4792 Y-1.26
N18995 X1.478 Y-1.275
N19000 X1.477 Y-1.29
N19005 X1.478 Y-1.305
N19010 X1.4792 Y-1.32
N19015 X1.4806 Y-1.335
N19020 X1.4828 Y-1.3462
N19025 X1.4913 Y-1.38
N19030 X1.4965 Y-1.395
N19035 X1.5092 Y-1.425
N19040 X1.5128 Y-1.4332
N19045 X1.5165 Y-1.44
N19050 X1.5248 Y-1.455
N19055 X1.5278 Y-1.4599
N19060 X1.5354 Y-1.47
N19065 X1.5428 Y-1.4795
N19070 X1.5472 Y-1.485
N19075 X1.5602 Y-1.5
N19080 X1.5727 Y-1.5143
N19085 X1.5734 Y-1.5149
N19090 X1.5877 Y-1.5276
N19095 X1.5905 Y-1.5299
N19100 X1.6027 Y-1.5388
N19105 X1.6177 Y-1.5495
N19110 X1.6327 Y-1.5585
N19115 X1.6626 Y-1.5749
N19120 X1.6776 Y-1.5812
N19125 X1.6917 Y-1.586
N19130 X1.696 Y-1.5867 Z-0.5904
N19135 X1.7001 Y-1.5874 Z-0.5895
N19140 X1.7041 Y-1.588 Z-0.5881
N19145 X1.7062 Y-1.5881 Z-0.587
N19150 X1.7092 Y-1.5877 Z-0.5852
N19155 X1.712 Y-1.5873 Z-0.5829
N19160 X1.7145 Y-1.587 Z-0.5804
N19165 X1.7167 Y-1.5868 Z-0.5776
N19170 X1.7186 Y-1.5865 Z-0.5746
N19175 X1.7201 Y-1.5861 Z-0.5711
N19180 X1.7213 Y-1.5857 Z-0.5674
N19185 X1.7219 Y-1.5855 Z-0.5636
N19190 X1.7222 Y-1.5854 Z-0.5598
N19195 G0 Z0.2
N19200 G1 X2.5729 Y-1.5703 F500.
N19205 G0 Z0.0211
N19210 G1 Z-0.0289 F22.8
N19215 X2.573 Y-1.57 Z-0.0345
N19220 X2.5735 Y-1.5692 Z-0.04
N19225 X2.5742 Y-1.5678 Z-0.0454
N19230 X2.5752 Y-1.5659 Z-0.0506
N19235 X2.5764 Y-1.5635 Z-0.0555
N19240 X2.578 Y-1.5607 Z-0.0601
N19245 X2.5797 Y-1.5574 Z-0.0643
N19250 X2.5816 Y-1.5537 Z-0.068
N19255 X2.5838 Y-1.5496 Z-0.0712
N19260 X2.5861 Y-1.5453 Z-0.074
N19265 X2.5885 Y-1.5407 Z-0.0761
N19270 X2.591 Y-1.5359 Z-0.0777
N19275 X2.5936 Y-1.5311 Z-0.0786
N19280 X2.5962 Y-1.5261 Z-0.0789
N19285 G3 X2.6601 Y-1.2586 I-0.4901 J0.2585
N19290 G1 X2.6594 Y-1.245
N19295 X2.6571 Y-1.23
N19300 X2.6523 Y-1.2
N19305 X2.6388 Y-1.125
N19310 X2.6366 Y-1.1144
N19315 X2.6285 Y-1.08
N19320 X2.6246 Y-1.0651
N19325 X2.6216 Y-1.0537
N19330 X2.6162 Y-1.0351
N19335 X2.6111 Y-1.0201
N19340 X2.6059 Y-1.0051
N19345 X2.6007 Y-0.9901
N19350 X2.5889 Y-0.9601
N19355 X2.5829 Y-0.9451
N19360 X2.5767 Y-0.9312
N19365 X2.5689 Y-0.9151
N19370 X2.5615 Y-0.9001
N19375 X2.5458 Y-0.8701
N19380 X2.5372 Y-0.8551
N19385 X2.5167 Y-0.8221
N19390 X2.5088 Y-0.8101
N19395 X2.4988 Y-0.7951
N19400 X2.4883 Y-0.7801
N19405 X2.4868 Y-0.778
N19410 X2.4718 Y-0.759
N19415 X2.4529 Y-0.7351
N19420 X2.4418 Y-0.7227
N19425 X2.4259 Y-0.7051
N19430 X2.4118 Y-0.6898
N19435 X2.3969 Y-0.6749
N19440 X2.3818 Y-0.6601
N19445 X2.3669 Y-0.6459
N19450 X2.366 Y-0.6451
N19455 X2.3301 Y-0.6152
N19460 X2.3219 Y-0.6085
N19465 X2.3107 Y-0.6002
N19470 X2.2903 Y-0.5852
N19475 X2.277 Y-0.5757
N19480 X2.262 Y-0.5661
N19485 X2.245 Y-0.5552
N19490 X2.232 Y-0.5473
N19495 X2.2021 Y-0.5301
N19500 X2.1933 Y-0.5252
N19505 X2.1871 Y-0.5219
N19510 X2.1721 Y-0.5146
N19515 X2.1571 Y-0.5073
N19520 X2.1421 Y-0.5007
N19525 X2.1122 Y-0.4878
N19530 X2.0972 Y-0.4822
N19535 X2.0822 Y-0.4767
N19540 X2.0672 Y-0.4713
N19545 X2.0372 Y-0.4616
N19550 X2.0223 Y-0.457
N19555 X1.9923 Y-0.4497
N19560 X1.9773 Y-0.4461
